; generated by PrusaSlicer 2.3.1+win64 on 2021-06-03 at 01:08:08 UTC

; 

; external perimeters extrusion width = 0.45mm
; perimeters extrusion width = 0.45mm
; infill extrusion width = 0.45mm
; solid infill extrusion width = 0.45mm
; top infill extrusion width = 0.40mm
; first layer extrusion width = 0.42mm

M73 P0 R0 ; set progress
M73 Q0 S0 ; set progress
M201 X2000 Y2000 Z200 E5000 ; sets maximum accelerations, mm/sec^2
M203 X200 Y200 Z12 E120 ; sets maximum feedrates, mm/sec
M204 P1250 R1250 T1250 ; sets acceleration (P, T) and retract acceleration (R), mm/sec^2
M205 X8.00 Y8.00 Z0.40 E4.50 ; sets the jerk limits, mm/sec
M205 S0 T0 ; sets the minimum extruding and travel feed rate, mm/sec
M107 ; fan off
;TYPE:Custom
M862.3 P "MK3S" ; printer model check
M862.1 P0.4 ; nozzle diameter check
M115 U3.9.2 ; tell printer latest fw version
G90 ; use absolute coordinates
M83 ; extruder relative mode
; G28 W ; home all without mesh bed level
; G1 X0 Y0 F1000.0 ; go outside print area

; Don't change E values below. Excessive value can damage the printer.

M907 E538 ; set extruder motor current
G21 ; set units to millimeters
G90 ; use absolute coordinates
M83 ; use relative distances for extrusion
;LAYER_CHANGE
;Z:0.2
;HEIGHT:0.2
;BEFORE_LAYER_CHANGE
;0.2

; --------------------- HEADER END ---------------------

G1 Z20 ; raise nozzle before travelling to tablet
G1 X88.000 Y172.543 F6000 ; move nozzle on top of start song button
G1 Z14.5 ; lower nozzle to tablet
G1 Z14.00 F9000 ; tap press
G1 Z14.50 F9000 ; tap release
G1 X83.341 Y172.885 F9000 ; move to first hit object in the map
G4 P200 ; wait until first object
; START MAP

G1 X83.33 Y172.88 F54.67
G1 X83.31 Y172.88 F58.09
G1 X83.29 Y172.88 F54.67
G1 X83.28 Y172.89 F43.74
G4 P17
G1 X83.28 Y172.90 F26.43
G1 X83.28 Y172.91 F40.68
G1 X83.28 Y172.92 F36.16
G1 X83.28 Y172.92 F20.34
G4 P16
G4 P17
G4 P17
G4 P16
G4 P17
G4 P18
G4 P16
G4 P16
G4 P17
G1 X83.27 Y172.91 F42.40
G1 X83.27 Y172.90 F45.05
G4 P17
G4 P17
G4 P17
G4 P16
G4 P16
G4 P17
G4 P17
G1 X83.26 Y172.90 F26.43
G1 X83.26 Y172.89 F20.34
G1 X83.26 Y172.88 F19.14
G1 X83.26 Y172.88 F26.43
G1 X83.26 Y172.87 F20.34
G4 P17
G1 X83.26 Y172.87 F20.34
G4 P17
G1 X83.26 Y172.86 F19.14
G1 X83.26 Y172.86 F20.34
G1 X83.26 Y172.85 F38.28
G1 X83.25 Y172.84 F42.40
G1 X83.25 Y172.82 F57.43
G1 X83.25 Y172.81 F42.40
G1 X83.24 Y172.79 F64.01
G1 X83.24 Y172.78 F38.28
G1 X83.24 Y172.77 F40.68
G1 X83.24 Y172.77 F19.14
G1 X83.24 Y172.76 F19.14
G4 P16
G1 X83.25 Y172.75 F26.43
G1 X83.26 Y172.75 F41.17
G1 X83.26 Y172.73 F61.02
G1 X83.25 Y172.72 F128.37
G4 P10
G4 P17
G4 P16
G4 P17
G4 P16
G4 P17
G4 P17
G4 P17
G4 P16
G4 P17
G4 P9
G1 X83.25 Y172.74 F128.03
G1 X83.23 Y172.79 F217.63
G1 X83.17 Y172.84 F262.92
G1 X83.17 Y172.85 F20.34
G1 X83.17 Y172.85 F20.34
G1 X83.18 Y172.85 F18.22
G4 P17
G1 X83.17 Y172.86 F43.74
G4 P17
G4 P17
G4 P16
G1 X83.16 Y172.86 F18.22
G1 X83.16 Y172.86 F20.34
G4 P17
G4 P17
G4 P17
G1 X83.17 Y172.86 F19.36
G1 X83.18 Y172.86 F36.45
G1 X83.19 Y172.86 F66.39
G4 P2
G1 X83.20 Y172.86 F38.88
G1 X83.24 Y172.85 F133.18
G1 X83.28 Y172.83 F177.58
G1 X83.33 Y172.81 F186.68
G1 X83.37 Y172.79 F174.96
G1 X83.39 Y172.77 F105.72
G1 X83.39 Y172.74 F81.35
G1 X83.39 Y172.71 F108.47
G1 X83.39 Y172.71 F20.34
G4 P16
G4 P17
G4 P16
G4 P17
G4 P17
G4 P6
G4 P0
G1 X83.32 Y172.76 F276.27
G1 X83.31 Y172.78 F74.33
G1 X83.32 Y172.80 F90.10
G1 X83.32 Y172.83 F101.69
G1 X83.30 Y172.87 F152.54
G1 X83.24 Y172.93 F290.72
G1 X83.16 Y173.01 F462.86
G1 X83.06 Y173.10 F423.85
G1 X82.98 Y173.19 F449.30
G1 X82.91 Y173.28 F423.52
G1 X82.87 Y173.33 F217.25
G1 X82.86 Y173.36 F135.15
G1 X82.85 Y173.37 F56.16
G4 P17
G4 P2
G4 P14
G4 P18
G1 X82.86 Y173.37 F43.74
G1 X82.89 Y173.36 F121.82
G1 X82.94 Y173.36 F207.67
G1 X82.97 Y173.36 F263.80
G1 X83.02 Y173.37 F260.28
G1 X83.10 Y173.39 F301.46
G1 X83.20 Y173.42 F381.68
G1 X83.28 Y173.46 F318.78
G1 X83.37 Y173.50 F340.94
G1 X83.45 Y173.54 F320.89
G1 X83.50 Y173.56 F210.02
G1 X83.53 Y173.57 F98.83
G1 X83.53 Y173.57 F28.08
G4 P8
G4 P9
G4 P17
G1 X83.53 Y173.57 F28.08
G1 X83.52 Y173.56 F52.86
G1 X83.50 Y173.54 F105.72
G1 X83.44 Y173.51 F233.28
G4 P3
G1 X83.36 Y173.47 F340.94
G1 X83.27 Y173.43 F384.63
G1 X83.17 Y173.38 F420.04
G1 X83.07 Y173.33 F349.92
G1 X83.01 Y173.30 F289.18
G1 X82.95 Y173.26 F226.19
G1 X82.92 Y173.24 F131.22
G1 X82.91 Y173.23 F66.74
G1 X82.90 Y173.23 F43.74
G4 P3
G4 P14
G4 P17
G1 X82.91 Y173.23 F34.42
G1 X82.96 Y173.25 F243.19
G1 X83.03 Y173.27 F352.71
G1 X83.06 Y173.28 F328.23
G1 X83.16 Y173.32 F394.47
G1 X83.26 Y173.36 F394.47
G1 X83.36 Y173.38 F381.68
G1 X83.45 Y173.42 F344.53
G1 X83.53 Y173.44 F266.37
G1 X83.57 Y173.44 F156.23
G1 X83.58 Y173.44 F58.09
G4 P17
G4 P17
G1 X83.58 Y173.44 F40.68
G1 X83.58 Y173.43 F80.09
G1 X83.57 Y173.41 F84.80
G1 X83.56 Y173.38 F103.52
G1 X83.56 Y173.33 F183.05
G1 X83.59 Y173.26 F265.00
G1 X83.62 Y173.16 F361.49
G1 X83.68 Y172.98 F668.47
G1 X83.69 Y172.96 F870.53
G1 X83.77 Y172.73 F1031.13
G1 X83.89 Y172.42 F1175.49
G1 X84.07 Y172.06 F1407.13
G1 X84.25 Y171.72 F1431.55
G1 X84.31 Y171.62 F1176.64
G1 X84.39 Y171.47 F917.09
G1 X84.49 Y171.27 F788.36
G1 X84.50 Y171.20 F270.70
G1 X84.50 Y171.19 F92.97
G1 X84.50 Y171.19 F30.98
G1 X84.46 Y171.23 F185.59
G1 X84.39 Y171.28 F316.96
G1 X84.29 Y171.37 F491.15
G1 X84.20 Y171.46 F448.78
G1 X84.17 Y171.49 F617.57
G1 X84.11 Y171.53 F374.45
G1 X83.99 Y171.60 F460.36
G1 X83.86 Y171.66 F525.05
G1 X83.74 Y171.70 F474.12
G1 X83.64 Y171.73 F376.82
G1 X83.56 Y171.75 F301.61
G1 X83.51 Y171.75 F172.11
G1 X83.47 Y171.73 F204.90
G1 X83.47 Y171.73 F77.45
G1 X83.41 Y171.69 F268.02
G1 X83.35 Y171.64 F277.17
G1 X83.30 Y171.57 F383.43
G1 X83.29 Y171.57 F112.32
G1 X83.26 Y171.51 F261.57
G1 X83.23 Y171.44 F281.57
G1 X83.21 Y171.37 F240.99
G1 X83.20 Y171.32 F194.86
G1 X83.20 Y171.30 F162.71
G1 X83.20 Y171.28 F122.03
G1 X83.20 Y171.27 F42.40
G4 P6
G1 X83.19 Y171.28 F72.08
G1 X83.17 Y171.34 F229.43
G1 X83.12 Y171.46 F451.93
G1 X83.04 Y171.66 F806.63
G1 X83.02 Y171.70 F518.63
G1 X82.96 Y171.80 F543.06
G1 X82.88 Y171.91 F511.31
G1 X82.80 Y171.99 F421.22
G1 X82.79 Y172.02 F267.69
G1 X82.77 Y172.04 F204.52
G1 X82.74 Y172.08 F146.60
G1 X82.73 Y172.10 F110.22
G1 X82.70 Y172.12 F114.43
G1 X82.66 Y172.15 F159.48
G1 X82.61 Y172.19 F268.02
G1 X82.56 Y172.24 F224.65
G1 X82.51 Y172.30 F295.88
G1 X82.45 Y172.36 F323.93
G1 X82.41 Y172.42 F240.61
G1 X82.39 Y172.46 F169.60
G1 X82.39 Y172.49 F122.03
G4 P1
G1 X82.40 Y172.53 F128.03
G1 X82.43 Y172.58 F192.71
G1 X82.44 Y172.58 F224.66
G1 X82.47 Y172.62 F242.02
G1 X82.55 Y172.68 F330.80
G1 X82.64 Y172.75 F425.48
G1 X82.79 Y172.84 F620.63
G1 X82.95 Y172.94 F730.22
G1 X83.17 Y173.09 F858.02
G1 X83.39 Y173.25 F1047.90
G1 X83.68 Y173.48 F1226.97
G1 X83.91 Y173.66 F1256.95
G1 X84.18 Y173.88 F1162.06
G1 X84.21 Y173.91 F1235.14
G1 X84.35 Y174.02 F771.51
G1 X84.44 Y174.10 F396.02
G1 X84.46 Y174.15 F207.07
G1 X84.47 Y174.16 F42.40
G4 P14
G4 P3
G1 X84.48 Y174.11 F176.09
G1 X84.48 Y174.05 F224.56
G1 X84.49 Y173.97 F270.46
G1 X84.51 Y173.89 F311.11
G1 X84.51 Y173.85 F383.15
G1 X84.52 Y173.79 F330.25
G1 X84.55 Y173.67 F482.00
G1 X84.57 Y173.60 F481.26
G1 X84.59 Y173.52 F551.02
G1 X84.64 Y173.36 F634.55
G1 X84.68 Y173.17 F665.24
G1 X84.70 Y173.00 F658.97
G1 X84.71 Y172.98 F446.00
G1 X84.73 Y172.86 F505.77
G1 X84.75 Y172.75 F390.77
G1 X84.75 Y172.69 F211.35
G1 X84.76 Y172.68 F45.05
G4 P4
G1 X84.76 Y172.69 F25.03
G1 X84.77 Y172.73 F172.76
G1 X84.80 Y172.78 F204.05
G1 X84.86 Y172.86 F345.89
G1 X84.94 Y172.93 F550.78
G1 X85.00 Y172.99 F645.09
G1 X85.12 Y173.10 F658.18
G1 X85.27 Y173.24 F950.11
G1 X85.30 Y173.26 F748.83
G1 X85.54 Y173.46 F1168.01
G1 X85.77 Y173.65 F1058.93
G1 X86.00 Y173.84 F1044.88
G1 X86.14 Y173.99 F967.72
G1 X86.16 Y174.01 F385.42
G1 X86.21 Y174.12 F394.90
G1 X86.21 Y174.16 F151.86
G1 X86.20 Y174.16 F53.83
G1 X86.19 Y174.16 F154.89
G1 X86.14 Y174.13 F211.79
G1 X86.06 Y174.07 F382.13
G1 X85.95 Y174.00 F456.48
G1 X85.84 Y173.94 F464.09
G1 X85.72 Y173.88 F458.44
G1 X85.62 Y173.83 F402.26
G1 X85.51 Y173.80 F399.55
G1 X85.39 Y173.76 F467.53
G1 X85.26 Y173.73 F499.20
G1 X85.13 Y173.69 F474.87
G1 X85.00 Y173.65 F492.39
G1 X84.82 Y173.60 F665.92
G4 P1
G1 X84.64 Y173.55 F734.95
G1 X84.44 Y173.49 F753.64
G1 X84.38 Y173.48 F886.20
G1 X84.19 Y173.43 F960.89
G1 X83.96 Y173.35 F880.06
G1 X83.73 Y173.27 F834.55
G1 X83.46 Y173.16 F1103.88
G1 X83.25 Y173.06 F736.16
G1 X83.20 Y173.03 F732.38
G1 X83.12 Y172.98 F549.28
G1 X83.07 Y172.92 F293.21
G1 X83.06 Y172.89 F108.82
G4 P7
G1 X83.08 Y172.89 F123.92
G1 X83.17 Y172.95 F414.15
G1 X83.29 Y173.01 F494.01
G1 X83.44 Y173.10 F610.81
G1 X83.60 Y173.19 F626.64
G1 X83.70 Y173.25 F447.22
G1 X83.74 Y173.28 F271.11
G1 X83.75 Y173.28 F196.95
G1 X83.75 Y173.29 F81.36
G1 X83.76 Y173.29 F22.13
G1 X83.75 Y173.26 F103.52
G1 X83.75 Y173.25 F216.96
G1 X83.73 Y173.19 F232.14
G1 X83.70 Y173.08 F421.74
G1 X83.67 Y173.01 F500.56
G1 X83.65 Y172.93 F687.42
G1 X83.57 Y172.77 F645.93
G1 X83.51 Y172.63 F756.47
G1 X83.47 Y172.57 F837.04
G1 X83.35 Y172.37 F816.19
G1 X83.18 Y172.14 F1088.45
G1 X83.04 Y171.95 F795.37
G1 X82.88 Y171.76 F976.72
G1 X82.72 Y171.57 F879.63
G1 X82.62 Y171.43 F616.87
G1 X82.56 Y171.34 F399.85
G1 X82.54 Y171.31 F204.53
G4 P7
G1 X82.52 Y171.34 F144.53
G1 X82.48 Y171.45 F381.12
G1 X82.43 Y171.59 F544.08
G1 X82.36 Y171.76 F663.55
G1 X82.28 Y171.93 F694.17
G1 X82.21 Y172.08 F586.00
G1 X82.18 Y172.17 F486.33
G1 X82.18 Y172.19 F162.71
G1 X82.18 Y172.21 F195.24
G1 X82.18 Y172.21 F32.54
G1 X82.27 Y172.15 F385.66
G1 X82.43 Y171.98 F855.90
G1 X82.64 Y171.76 F1035.34
G1 X82.92 Y171.50 F1444.42
G1 X83.20 Y171.24 F1319.94
G1 X83.34 Y171.12 F702.94
G1 X83.36 Y171.11 F699.84
G1 X83.39 Y171.09 F134.88
G1 X83.39 Y171.11 F88.75
G1 X83.38 Y171.14 F395.39
G1 X83.36 Y171.23 F337.93
G1 X83.33 Y171.35 F430.87
G1 X83.29 Y171.49 F500.26
G1 X83.23 Y171.59 F450.91
G1 X83.12 Y171.69 F501.55
G1 X83.10 Y171.71 F2023.30
G1 X82.98 Y171.78 F512.37
G1 X82.85 Y171.86 F711.83
G4 P4
G1 X82.71 Y171.92 F568.64
G1 X82.55 Y171.99 F634.02
G1 X82.40 Y172.04 F579.04
G1 X82.27 Y172.09 F487.07
G1 X82.16 Y172.13 F399.55
G1 X82.15 Y172.13 F328.23
G1 X82.10 Y172.13 F214.47
G1 X82.07 Y172.10 F182.38
G1 X82.05 Y172.06 F273.36
G1 X82.04 Y172.00 F403.65
G1 X82.05 Y171.85 F518.12
G1 X82.11 Y171.67 F723.57
G1 X82.21 Y171.45 F857.81
G1 X82.32 Y171.27 F777.84
G1 X82.35 Y171.24 F980.01
G1 X82.43 Y171.18 F436.72
G1 X82.52 Y171.19 F334.76
G1 X82.57 Y171.32 F494.23
G1 X82.61 Y171.56 F851.86
G1 X82.68 Y171.94 F1445.77
G1 X82.73 Y172.24 F1068.47
G1 X82.74 Y172.44 F1006.35
G1 X82.75 Y172.51 F979.31
G1 X82.75 Y172.53 F813.54
G1 X82.75 Y172.71 F694.22
G1 X82.74 Y172.79 F347.72
G1 X82.74 Y172.80 F162.72
G1 X82.75 Y172.83 F116.29
G1 X82.75 Y172.84 F28.08
G1 X82.76 Y172.85 F60.25
G1 X82.76 Y172.91 F192.29
G1 X82.76 Y173.02 F427.55
G1 X82.76 Y173.16 F451.96
G1 X82.76 Y173.33 F631.95
G1 X82.78 Y173.48 F531.98
G1 X82.81 Y173.61 F467.75
G1 X82.85 Y173.67 F336.12
G1 X82.86 Y173.68 F233.28
G1 X82.91 Y173.71 F231.03
G1 X82.97 Y173.68 F236.02
G4 P0
G1 X83.06 Y173.58 F451.21
G1 X83.16 Y173.46 F631.20
G1 X83.29 Y173.32 F660.73
G1 X83.43 Y173.18 F726.28
G1 X83.56 Y173.04 F662.56
G1 X83.61 Y172.93 F363.98
G1 X83.61 Y172.90 F162.71
G1 X83.58 Y172.88 F98.83
G1 X83.57 Y172.89 F246.18
G1 X83.49 Y172.93 F443.87
G1 X83.38 Y173.00 F862.24
G1 X83.28 Y173.05 F939.21
G1 X82.90 Y173.22 F1391.46
G1 X82.47 Y173.38 F1730.07
G1 X82.00 Y173.51 F1708.48
G1 X81.65 Y173.60 F1272.01
G1 X81.61 Y173.60 F624.91
G1 X81.56 Y173.61 F259.58
G1 X81.56 Y173.60 F162.71
G1 X81.59 Y173.57 F166.15
G1 X81.71 Y173.51 F525.05
G1 X81.75 Y173.50 F393.88
G1 X81.85 Y173.47 F566.03
G1 X81.97 Y173.44 F412.18
G1 X81.99 Y173.44 F309.80
G1 X82.06 Y173.42 F325.57
G1 X82.10 Y173.39 F185.30
G1 X82.11 Y173.38 F165.18
G1 X82.12 Y173.35 F174.10
G1 X82.12 Y173.26 F306.82
G1 X82.12 Y173.17 F345.75
G1 X82.12 Y173.06 F401.98
G1 X82.13 Y172.93 F459.77
G1 X82.11 Y172.83 F348.87
G1 X82.09 Y172.75 F295.08
G1 X82.08 Y172.72 F240.27
G1 X82.07 Y172.71 F144.53
G4 P2
G1 X82.06 Y172.69 F51.49
G1 X82.06 Y172.69 F17.21
G4 P15
G4 P2
G1 X82.07 Y172.71 F89.86
G1 X82.09 Y172.73 F199.69
G1 X82.12 Y172.75 F283.66
G1 X82.25 Y172.83 F534.65
G1 X82.34 Y172.88 F560.48
G1 X82.42 Y172.92 F1011.69
G1 X82.69 Y173.09 F1061.23
G1 X82.99 Y173.26 F1297.97
G1 X83.32 Y173.45 F1422.69
G1 X83.57 Y173.63 F1108.71
G1 X83.77 Y173.82 F963.68
G1 X83.85 Y173.91 F585.80
G1 X83.87 Y173.94 F409.04
G1 X83.89 Y173.97 F144.53
G1 X83.87 Y173.92 F219.48
G1 X83.86 Y173.90 F385.43
G1 X83.77 Y173.72 F720.80
G1 X83.64 Y173.44 F1249.39
G1 X83.48 Y173.06 F1461.34
G1 X83.33 Y172.67 F1476.08
G1 X83.23 Y172.33 F1236.28
G1 X83.19 Y172.10 F832.94
G1 X83.19 Y172.04 F275.35
G4 P4
G1 X83.24 Y172.09 F267.83
G1 X83.28 Y172.16 F723.80
G1 X83.34 Y172.26 F752.96
G1 X83.46 Y172.47 F808.59
G1 X83.56 Y172.71 F967.56
G1 X83.62 Y172.95 F924.57
G1 X83.67 Y173.09 F505.88
G1 X83.69 Y173.11 F179.72
G1 X83.69 Y173.11 F44.26
G1 X83.73 Y172.96 F570.57
G1 X83.79 Y172.70 F1061.61
G1 X83.80 Y172.67 F1024.24
G1 X83.88 Y172.30 F1338.02
G1 X84.00 Y171.83 F1820.00
G1 X84.10 Y171.48 F1273.08
G1 X84.17 Y171.31 F670.77
G1 X84.27 Y171.28 F354.60
G1 X84.44 Y171.38 F719.66
G1 X84.48 Y171.40 F1399.71
G1 X84.73 Y171.53 F1138.08
G1 X85.20 Y171.75 F1940.70
G1 X85.60 Y171.89 F1482.55
G1 X85.90 Y171.98 F1123.34
G1 X86.03 Y172.03 F487.07
G1 X86.03 Y172.03 F108.48
G4 P4
G1 X86.02 Y172.04 F126.07
G1 X85.93 Y172.06 F412.02
G1 X85.90 Y172.06 F309.80
G1 X85.73 Y172.07 F682.93
G1 X85.54 Y172.08 F675.35
G1 X85.31 Y172.10 F823.61
G1 X85.02 Y172.14 F1093.59
G1 X84.79 Y172.19 F774.56
G1 X84.65 Y172.22 F532.58
G1 X84.60 Y172.22 F194.69
G1 X84.60 Y172.21 F56.90
G1 X84.61 Y172.16 F204.84
G1 X84.66 Y172.07 F352.25
G1 X84.70 Y172.01 F434.50
G1 X84.74 Y171.95 F621.97
G1 X84.85 Y171.82 F609.74
G1 X84.96 Y171.71 F748.83
G1 X85.00 Y171.66 F1010.91
G1 X85.09 Y171.56 F440.25
G1 X85.13 Y171.49 F306.43
G1 X85.13 Y171.47 F83.63
G1 X85.13 Y171.47 F19.14
G1 X85.13 Y171.51 F133.99
G1 X85.12 Y171.59 F273.51
G1 X85.07 Y171.69 F484.46
G4 P3
G1 X85.00 Y171.83 F594.23
G1 X84.86 Y172.05 F1038.99
G1 X84.85 Y172.09 F720.81
G1 X84.66 Y172.40 F1442.89
G1 X84.44 Y172.80 F1618.81
G1 X84.19 Y173.28 F2016.70
G1 X84.02 Y173.60 F1279.51
G1 X83.96 Y173.72 F1062.41
G1 X83.91 Y173.79 F562.95
G1 X83.87 Y173.83 F224.65
G4 P3
G1 X83.87 Y173.77 F256.64
G1 X83.93 Y173.63 F543.62
G1 X84.03 Y173.43 F788.36
G1 X84.12 Y173.25 F739.22
G1 X84.19 Y173.07 F705.91
G1 X84.28 Y172.89 F703.56
G1 X84.36 Y172.75 F595.40
G1 X84.45 Y172.66 F426.29
G1 X84.53 Y172.61 F373.25
G1 X84.61 Y172.61 F258.16
G1 X84.69 Y172.66 F359.83
G1 X84.70 Y172.67 F349.91
G1 X84.76 Y172.79 F596.93
G1 X84.78 Y172.97 F614.98
G1 X84.78 Y173.03 F781.00
G1 X84.75 Y173.24 F986.66
G1 X84.67 Y173.50 F993.60
G1 X84.54 Y173.80 F1237.55
G1 X84.41 Y174.01 F939.47
G1 X84.26 Y174.19 F777.84
G1 X84.19 Y174.26 F343.30
G1 X84.19 Y174.25 F38.28
G1 X84.25 Y174.14 F450.90
G1 X84.40 Y173.96 F849.98
G1 X84.61 Y173.73 F1140.13
G1 X84.66 Y173.68 F1497.66
G1 X84.87 Y173.44 F1381.93
G1 X85.10 Y173.20 F1222.30
G1 X85.26 Y172.98 F908.99
G1 X85.34 Y172.88 F515.63
G1 X85.37 Y172.85 F224.65
G1 X85.39 Y172.84 F349.92
G1 X85.39 Y172.84 F61.96
G1 X85.44 Y172.84 F185.88
G1 X85.53 Y172.88 F376.48
G1 X85.63 Y172.92 F378.59
G1 X85.73 Y172.96 F371.26
G1 X85.77 Y172.99 F378.20
G1 X85.81 Y173.02 F387.31
G1 X85.86 Y173.08 F278.47
G1 X85.89 Y173.15 F360.40
G1 X85.90 Y173.17 F288.33
G1 X85.93 Y173.28 F416.59
G1 X85.95 Y173.38 F370.93
G1 X85.97 Y173.49 F390.77
G1 X85.98 Y173.59 F388.37
G1 X85.97 Y173.66 F235.65
G1 X85.94 Y173.71 F244.41
G1 X85.90 Y173.74 F199.96
G1 X85.88 Y173.74 F328.22
G1 X85.87 Y173.75 F174.96
G1 X85.82 Y173.75 F258.16
G1 X85.73 Y173.71 F330.40
G1 X85.62 Y173.67 F494.54
G1 X85.61 Y173.65 F449.30
G1 X85.47 Y173.60 F542.95
G1 X85.35 Y173.55 F541.07
G1 X85.33 Y173.54 F699.84
G1 X85.13 Y173.45 F749.65
G1 X84.94 Y173.37 F786.85
G1 X84.71 Y173.27 F889.49
G1 X84.40 Y173.13 F1250.41
G1 X84.08 Y173.00 F1227.01
G1 X83.78 Y172.88 F1147.86
G1 X83.50 Y172.79 F1053.78
G1 X83.42 Y172.76 F951.28
G1 X83.32 Y172.71 F636.22
G1 X83.24 Y172.61 F426.30
G1 X83.22 Y172.50 F441.68
G1 X83.22 Y172.47 F488.12
G1 X83.23 Y172.37 F506.06
G1 X83.23 Y172.35 F650.85
