; generated by PrusaSlicer 2.3.1+win64 on 2021-06-03 at 01:08:08 UTC

; 

; external perimeters extrusion width = 0.45mm
; perimeters extrusion width = 0.45mm
; infill extrusion width = 0.45mm
; solid infill extrusion width = 0.45mm
; top infill extrusion width = 0.40mm
; first layer extrusion width = 0.42mm

M73 P0 R0 ; set progress
M73 Q0 S0 ; set progress
M201 X2000 Y2000 Z200 E5000 ; sets maximum accelerations, mm/sec^2
M203 X200 Y200 Z12 E120 ; sets maximum feedrates, mm/sec
M204 P1250 R1250 T1250 ; sets acceleration (P, T) and retract acceleration (R), mm/sec^2
M205 X8.00 Y8.00 Z0.40 E4.50 ; sets the jerk limits, mm/sec
M205 S0 T0 ; sets the minimum extruding and travel feed rate, mm/sec
M107 ; fan off
;TYPE:Custom
M862.3 P "MK3S" ; printer model check
M862.1 P0.4 ; nozzle diameter check
M115 U3.9.2 ; tell printer latest fw version
G90 ; use absolute coordinates
M83 ; extruder relative mode
G28 W ; home all without mesh bed level
G1 X0 Y0 F1000.0 ; go outside print area

; Don't change E values below. Excessive value can damage the printer.

M907 E538 ; set extruder motor current
G21 ; set units to millimeters
G90 ; use absolute coordinates
M83 ; use relative distances for extrusion
;LAYER_CHANGE
;Z:0.2
;HEIGHT:0.2
;BEFORE_LAYER_CHANGE
;0.2

; --------------------- HEADER END ---------------------

G1 Z20 ; raise nozzle before travelling to tablet
G1 X90.000 Y176.000 F2000 ; move to tablet origin
G1 Z14 ; lower nozzle to tablet
G1 X99.919 Y171.500 F2000 ; get ready to select song
; START MAP
G1 Z13.50 F9000 ; tap press
G1 Z14.00 F9000 ; tap release
G4 3400 ; delay until first object

G1 X96.65 Y171.97 F109.34
G1 X96.62 Y171.97 F116.17
G1 X96.59 Y171.97 F109.33
G1 X96.57 Y171.98 F86.60
G4 P17
G1 X96.56 Y171.99 F51.55
G1 X96.56 Y172.01 F77.48
G1 X96.56 Y172.03 F68.88
G1 X96.56 Y172.04 F38.74
G4 P16
G4 P17
G4 P17
G4 P16
G4 P17
G4 P18
G4 P16
G4 P16
G4 P17
G1 X96.55 Y172.02 F81.52
G1 X96.54 Y172.00 F86.62
G4 P17
G4 P17
G4 P17
G4 P16
G4 P16
G4 P17
G4 P17
G1 X96.53 Y171.99 F51.56
G1 X96.53 Y171.98 F38.74
G1 X96.53 Y171.97 F36.46
G1 X96.52 Y171.96 F51.55
G1 X96.52 Y171.95 F38.74
G4 P17
G1 X96.52 Y171.94 F38.74
G4 P17
G1 X96.52 Y171.93 F36.46
G1 X96.52 Y171.92 F38.74
G1 X96.52 Y171.90 F72.92
G1 X96.51 Y171.88 F81.52
G1 X96.51 Y171.85 F109.39
G1 X96.50 Y171.83 F81.52
G1 X96.49 Y171.80 F122.50
G1 X96.49 Y171.77 F72.92
G1 X96.49 Y171.75 F77.48
G1 X96.49 Y171.74 F36.46
G1 X96.49 Y171.73 F36.46
G4 P16
G1 X96.50 Y171.72 F51.55
G1 X96.52 Y171.71 F81.51
G1 X96.52 Y171.68 F116.22
G1 X96.50 Y171.66 F250.41
G4 P10
G4 P17
G4 P16
G4 P17
G4 P16
G4 P17
G4 P17
G4 P17
G4 P16
G4 P17
G4 P9
G1 X96.51 Y171.69 F245.01
G1 X96.47 Y171.80 F417.22
G1 X96.34 Y171.89 F516.40
G1 X96.34 Y171.90 F38.74
G1 X96.34 Y171.91 F38.74
G1 X96.35 Y171.91 F36.44
G4 P17
G1 X96.33 Y171.92 F86.60
G4 P17
G4 P17
G4 P16
G1 X96.32 Y171.92 F36.45
G1 X96.32 Y171.93 F38.74
G4 P17
G4 P17
G4 P17
G1 X96.33 Y171.93 F38.73
G1 X96.35 Y171.93 F72.89
G1 X96.38 Y171.93 F132.77
G4 P2
G1 X96.40 Y171.92 F76.98
G1 X96.48 Y171.90 F265.34
G1 X96.56 Y171.87 F352.94
G1 X96.66 Y171.83 F370.75
G1 X96.74 Y171.79 F346.39
G1 X96.79 Y171.74 F206.21
G1 X96.79 Y171.70 F154.96
G1 X96.79 Y171.64 F206.62
G1 X96.79 Y171.63 F38.74
G4 P16
G4 P17
G4 P16
G4 P17
G4 P17
G4 P6
G4 P0
G1 X96.63 Y171.73 F551.10
G1 X96.62 Y171.77 F141.98
G1 X96.64 Y171.82 F173.24
G1 X96.64 Y171.87 F193.70
G1 X96.60 Y171.94 F293.93
G1 X96.49 Y172.05 F567.09
G1 X96.31 Y172.22 F904.20
G1 X96.12 Y172.38 F829.13
G1 X95.96 Y172.55 F876.40
G1 X95.81 Y172.71 F823.48
G1 X95.74 Y172.82 F420.28
G1 X95.71 Y172.88 F259.86
G1 X95.69 Y172.90 F109.55
G4 P17
G4 P2
G4 P14
G4 P18
G1 X95.71 Y172.89 F86.60
G1 X95.78 Y172.88 F243.40
G1 X95.89 Y172.87 F415.12
G1 X95.94 Y172.88 F526.56
G1 X96.03 Y172.90 F519.31
G1 X96.20 Y172.94 F601.10
G1 X96.39 Y172.99 F760.83
G1 X96.57 Y173.07 F632.88
G1 X96.73 Y173.14 F676.33
G1 X96.90 Y173.21 F636.55
G1 X97.00 Y173.25 F417.10
G1 X97.05 Y173.27 F196.28
G1 X97.06 Y173.28 F54.78
G4 P8
G4 P9
G4 P17
G1 X97.05 Y173.27 F54.78
G1 X97.03 Y173.25 F103.11
G1 X96.99 Y173.21 F206.21
G1 X96.89 Y173.16 F461.85
G4 P3
G1 X96.72 Y173.09 F676.34
G1 X96.54 Y173.00 F762.83
G1 X96.33 Y172.92 F834.20
G1 X96.15 Y172.83 F692.78
G1 X96.01 Y172.76 F571.81
G1 X95.91 Y172.68 F444.94
G1 X95.85 Y172.65 F259.80
G1 X95.81 Y172.63 F131.42
G1 X95.79 Y172.62 F86.60
G4 P3
G4 P14
G4 P17
G1 X95.81 Y172.62 F68.85
G1 X95.93 Y172.66 F483.49
G1 X96.06 Y172.70 F702.31
G1 X96.12 Y172.73 F653.12
G1 X96.32 Y172.80 F784.14
G1 X96.52 Y172.87 F784.15
G1 X96.71 Y172.92 F760.83
G1 X96.91 Y172.98 F685.87
G1 X97.05 Y173.02 F530.68
G1 X97.14 Y173.04 F312.21
G1 X97.17 Y173.04 F116.17
G4 P17
G4 P17
G1 X97.17 Y173.02 F77.49
G1 X97.16 Y173.00 F153.99
G1 X97.14 Y172.96 F163.05
G1 X97.13 Y172.91 F197.53
G1 X97.13 Y172.82 F348.66
G1 X97.18 Y172.68 F507.82
G1 X97.24 Y172.50 F691.78
G1 X97.36 Y172.16 F1280.24
G1 X97.38 Y172.11 F1668.88
G1 X97.54 Y171.67 F1974.47
G1 X97.79 Y171.08 F2254.86
G1 X98.14 Y170.40 F2706.75
G1 X98.50 Y169.76 F2757.90
G1 X98.61 Y169.56 F2267.82
G1 X98.78 Y169.29 F1768.31
G1 X98.97 Y168.90 F1516.41
G1 X99.01 Y168.77 F516.84
G1 X99.01 Y168.75 F177.09
G1 X99.00 Y168.75 F61.96
G1 X98.91 Y168.81 F364.51
G1 X98.78 Y168.92 F620.77
G1 X98.58 Y169.09 F962.05
G1 X98.40 Y169.25 F877.90
G1 X98.33 Y169.31 F1209.98
G1 X98.22 Y169.40 F733.95
G1 X97.98 Y169.53 F909.50
G1 X97.73 Y169.64 F1042.74
G1 X97.49 Y169.72 F943.04
G1 X97.28 Y169.77 F751.38
G1 X97.13 Y169.81 F601.18
G1 X97.02 Y169.81 F344.22
G1 X96.94 Y169.78 F407.23
G1 X96.93 Y169.78 F154.91
G1 X96.82 Y169.70 F526.78
G1 X96.70 Y169.59 F541.92
G1 X96.60 Y169.47 F744.66
G1 X96.59 Y169.46 F219.10
G1 X96.52 Y169.35 F505.05
G1 X96.47 Y169.21 F539.56
G1 X96.42 Y169.09 F461.18
G1 X96.40 Y168.99 F371.83
G1 X96.40 Y168.94 F309.92
G1 X96.40 Y168.91 F232.44
G1 X96.39 Y168.89 F81.52
G4 P6
G1 X96.38 Y168.91 F138.58
G1 X96.33 Y169.03 F440.53
G1 X96.24 Y169.25 F866.62
G1 X96.08 Y169.64 F1546.61
G1 X96.04 Y169.71 F999.36
G1 X95.93 Y169.90 F1046.69
G1 X95.76 Y170.11 F992.07
G1 X95.61 Y170.27 F821.63
G1 X95.58 Y170.32 F516.27
G1 X95.54 Y170.37 F396.83
G1 X95.48 Y170.43 F284.72
G1 X95.45 Y170.48 F212.58
G1 X95.40 Y170.51 F225.83
G1 X95.33 Y170.57 F313.57
G1 X95.22 Y170.65 F526.78
G1 X95.12 Y170.74 F438.21
G1 X95.02 Y170.86 F575.81
G1 X94.91 Y170.98 F630.52
G1 X94.82 Y171.08 F466.85
G1 X94.78 Y171.17 F326.09
G1 X94.78 Y171.23 F232.44
G4 P1
G1 X94.80 Y171.29 F245.00
G1 X94.86 Y171.38 F372.43
G1 X94.88 Y171.39 F438.22
G1 X94.95 Y171.48 F470.56
G1 X95.09 Y171.59 F649.01
G1 X95.28 Y171.71 F837.84
G1 X95.58 Y171.89 F1225.29
G1 X95.91 Y172.08 F1441.30
G1 X96.33 Y172.36 F1690.02
G1 X96.79 Y172.67 F2062.50
G1 X97.36 Y173.11 F2409.86
G1 X97.83 Y173.45 F2469.99
G1 X98.37 Y173.87 F2279.73
G1 X98.43 Y173.92 F2419.95
G1 X98.71 Y174.14 F1514.03
G1 X98.87 Y174.29 F775.00
G1 X98.92 Y174.38 F398.81
G1 X98.93 Y174.40 F81.52
G4 P14
G4 P3
G1 X98.95 Y174.31 F336.15
G1 X98.96 Y174.19 F427.90
G1 X98.99 Y174.05 F515.63
G1 X99.02 Y173.88 F593.54
G1 X99.03 Y173.81 F730.48
G1 X99.05 Y173.70 F629.99
G1 X99.11 Y173.46 F920.82
G1 X99.14 Y173.32 F918.84
G1 X99.18 Y173.19 F1053.80
G1 X99.27 Y172.88 F1213.33
G1 X99.36 Y172.51 F1269.90
G1 X99.41 Y172.20 F1256.77
G1 X99.42 Y172.16 F851.85
G1 X99.46 Y171.92 F964.68
G1 X99.49 Y171.72 F745.17
G1 X99.50 Y171.61 F402.73
G1 X99.51 Y171.59 F86.62
G4 P4
G1 X99.51 Y171.60 F47.68
G1 X99.54 Y171.68 F330.97
G1 X99.60 Y171.77 F394.34
G1 X99.73 Y171.92 F672.19
G1 X99.87 Y172.05 F1076.31
G1 X100.00 Y172.17 F1261.00
G1 X100.23 Y172.38 F1286.71
G1 X100.54 Y172.64 F1861.51
G1 X100.60 Y172.69 F1460.68
G1 X101.08 Y173.07 F2292.94
G1 X101.55 Y173.43 F2078.08
G1 X102.00 Y173.79 F2049.44
G1 X102.29 Y174.08 F1887.65
G1 X102.31 Y174.11 F744.86
G1 X102.41 Y174.33 F758.74
G1 X102.41 Y174.40 F289.26
G1 X102.39 Y174.41 F106.58
G1 X102.37 Y174.41 F309.79
G1 X102.28 Y174.34 F415.62
G1 X102.11 Y174.22 F751.99
G1 X101.90 Y174.09 F900.26
G1 X101.68 Y173.98 F918.10
G1 X101.43 Y173.86 F908.82
G1 X101.24 Y173.78 F798.37
G1 X101.02 Y173.72 F796.03
G1 X100.78 Y173.64 F931.02
G1 X100.52 Y173.58 F995.62
G1 X100.27 Y173.51 F946.23
G1 X100.00 Y173.44 F981.38
G1 X99.64 Y173.33 F1326.71
G4 P1
G1 X99.28 Y173.23 F1463.93
G1 X98.87 Y173.13 F1502.76
G1 X98.76 Y173.10 F1766.14
G1 X98.39 Y173.00 F1916.02
G1 X97.91 Y172.86 F1752.52
G1 X97.47 Y172.70 F1659.88
G1 X96.92 Y172.50 F2193.77
G1 X96.50 Y172.31 F1460.28
G1 X96.39 Y172.25 F1445.28
G1 X96.24 Y172.16 F1083.94
G1 X96.14 Y172.03 F569.45
G1 X96.11 Y171.98 F208.61
G4 P7
G1 X96.16 Y171.98 F247.83
G1 X96.34 Y172.10 F816.98
G1 X96.59 Y172.22 F978.04
G1 X96.89 Y172.38 F1207.26
G1 X97.20 Y172.55 F1239.28
G1 X97.41 Y172.66 F883.98
G1 X97.48 Y172.71 F533.06
G1 X97.51 Y172.73 F391.89
G1 X97.51 Y172.74 F154.97
G1 X97.52 Y172.74 F44.26
G1 X97.51 Y172.68 F197.53
G1 X97.51 Y172.66 F413.26
G1 X97.47 Y172.56 F445.03
G1 X97.39 Y172.34 F807.08
G1 X97.34 Y172.21 F959.21
G1 X97.29 Y172.06 F1316.31
G1 X97.15 Y171.74 F1240.13
G1 X97.01 Y171.49 F1455.36
G1 X96.94 Y171.37 F1616.15
G1 X96.69 Y171.00 F1577.35
G1 X96.36 Y170.55 F2107.39
G1 X96.07 Y170.18 F1543.23
G1 X95.75 Y169.83 F1900.94
G1 X95.44 Y169.46 F1708.34
G1 X95.24 Y169.19 F1195.84
G1 X95.11 Y169.03 F774.68
G1 X95.07 Y168.98 F396.84
G4 P7
G1 X95.03 Y169.04 F279.33
G1 X94.96 Y169.24 F729.65
G1 X94.85 Y169.50 F1043.05
G1 X94.71 Y169.83 F1273.45
G1 X94.56 Y170.15 F1334.04
G1 X94.42 Y170.44 F1125.50
G1 X94.36 Y170.62 F931.15
G1 X94.36 Y170.65 F309.92
G1 X94.36 Y170.68 F371.89
G1 X94.36 Y170.69 F61.99
G1 X94.53 Y170.57 F758.50
G1 X94.85 Y170.26 F1670.87
G1 X95.29 Y169.83 F2020.75
G1 X95.85 Y169.33 F2824.20
G1 X96.39 Y168.84 F2582.25
G1 X96.68 Y168.61 F1379.15
G1 X96.72 Y168.59 F1385.53
G1 X96.78 Y168.55 F264.53
G1 X96.78 Y168.58 F169.04
G1 X96.76 Y168.64 F754.07
G1 X96.71 Y168.82 F646.07
G1 X96.66 Y169.05 F822.59
G1 X96.58 Y169.31 F957.02
G1 X96.46 Y169.50 F870.48
G1 X96.25 Y169.69 F980.85
G1 X96.20 Y169.73 F3967.98
G1 X95.97 Y169.87 F1009.92
G1 X95.70 Y170.02 F1407.53
G4 P4
G1 X95.42 Y170.13 F1129.06
G1 X95.09 Y170.27 F1258.92
G1 X94.80 Y170.37 F1151.41
G1 X94.54 Y170.46 F968.45
G1 X94.33 Y170.52 F796.03
G1 X94.30 Y170.54 F653.12
G1 X94.20 Y170.54 F428.95
G1 X94.13 Y170.47 F357.08
G1 X94.10 Y170.40 F524.47
G1 X94.08 Y170.29 F770.00
G1 X94.10 Y170.01 F987.15
G1 X94.21 Y169.66 F1384.33
G1 X94.41 Y169.23 F1647.51
G1 X94.64 Y168.90 F1504.20
G1 X94.70 Y168.83 F1904.55
G1 X94.86 Y168.72 F859.41
G1 X95.04 Y168.75 F668.49
G1 X95.14 Y169.00 F947.93
G1 X95.22 Y169.45 F1624.45
G1 X95.35 Y170.17 F2758.13
G1 X95.45 Y170.74 F2038.21
G1 X95.48 Y171.12 F1917.44
G1 X95.49 Y171.25 F1865.96
G1 X95.49 Y171.30 F1549.60
G1 X95.49 Y171.63 F1322.33
G1 X95.48 Y171.80 F662.45
G1 X95.48 Y171.81 F309.94
G1 X95.49 Y171.87 F221.78
G1 X95.51 Y171.88 F54.78
G1 X95.52 Y171.91 F115.29
G1 X95.53 Y172.01 F366.43
G1 X95.52 Y172.23 F814.47
G1 X95.52 Y172.49 F860.88
G1 X95.53 Y172.83 F1203.77
G1 X95.56 Y173.10 F1013.92
G1 X95.63 Y173.36 F893.97
G1 X95.69 Y173.47 F647.16
G1 X95.71 Y173.48 F461.85
G1 X95.83 Y173.54 F456.71
G1 X95.94 Y173.49 F467.94
G4 P0
G1 X96.11 Y173.29 F877.78
G1 X96.32 Y173.07 F1228.38
G1 X96.58 Y172.81 F1288.83
G1 X96.87 Y172.53 F1417.95
G1 X97.12 Y172.26 F1289.89
G1 X97.22 Y172.06 F700.38
G1 X97.22 Y171.99 F309.92
G1 X97.17 Y171.97 F196.27
G1 X97.14 Y171.98 F489.86
G1 X96.98 Y172.06 F877.83
G1 X96.76 Y172.20 F1700.49
G1 X96.57 Y172.29 F1861.01
G1 X95.80 Y172.61 F2761.85
G1 X94.94 Y172.91 F3441.39
G1 X94.01 Y173.17 F3404.47
G1 X93.31 Y173.32 F2537.98
G1 X93.22 Y173.33 F1248.83
G1 X93.12 Y173.35 F518.90
G1 X93.12 Y173.33 F309.92
G1 X93.17 Y173.27 F322.69
G1 X93.43 Y173.17 F1042.74
G1 X93.49 Y173.15 F783.76
G1 X93.71 Y173.09 F1127.70
G1 X93.94 Y173.04 F822.28
G1 X93.98 Y173.04 F619.59
G1 X94.11 Y172.99 F648.28
G1 X94.19 Y172.94 F365.37
G1 X94.21 Y172.91 F319.23
G1 X94.24 Y172.86 F333.77
G1 X94.25 Y172.69 F584.52
G1 X94.25 Y172.52 F658.58
G1 X94.25 Y172.30 F765.68
G1 X94.26 Y172.05 F875.83
G1 X94.22 Y171.87 F665.35
G1 X94.18 Y171.72 F564.04
G1 X94.15 Y171.66 F461.97
G1 X94.13 Y171.63 F279.31
G4 P2
G1 X94.12 Y171.61 F99.00
G1 X94.11 Y171.61 F34.42
G4 P15
G4 P2
G1 X94.14 Y171.64 F175.28
G1 X94.18 Y171.68 F389.51
G1 X94.25 Y171.72 F558.57
G1 X94.49 Y171.86 F1057.07
G1 X94.69 Y171.96 F1108.69
G1 X94.83 Y172.04 F1998.32
G1 X95.38 Y172.35 F2096.54
G1 X95.98 Y172.68 F2565.42
G1 X96.63 Y173.06 F2810.13
G1 X97.15 Y173.40 F2183.71
G1 X97.55 Y173.75 F1886.06
G1 X97.69 Y173.92 F1137.37
G1 X97.74 Y173.98 F793.65
G1 X97.78 Y174.04 F279.32
G1 X97.75 Y173.94 F420.00
G1 X97.73 Y173.91 F744.88
G1 X97.55 Y173.56 F1385.89
G1 X97.28 Y173.02 F2402.21
G1 X96.95 Y172.30 F2806.13
G1 X96.65 Y171.56 F2829.99
G1 X96.46 Y170.92 F2364.28
G1 X96.38 Y170.47 F1588.45
G1 X96.38 Y170.36 F524.48
G4 P4
G1 X96.48 Y170.46 F521.10
G1 X96.57 Y170.60 F1399.90
G1 X96.68 Y170.78 F1452.67
G1 X96.92 Y171.19 F1558.97
G1 X97.12 Y171.64 F1856.58
G1 X97.24 Y172.10 F1766.77
G1 X97.33 Y172.35 F968.75
G1 X97.37 Y172.39 F350.56
G1 X97.38 Y172.39 F88.52
G1 X97.47 Y172.12 F1090.89
G1 X97.57 Y171.62 F2026.04
G1 X97.59 Y171.56 F1960.05
G1 X97.77 Y170.86 F2555.60
G1 X97.99 Y169.96 F3476.39
G1 X98.19 Y169.30 F2434.10
G1 X98.34 Y168.96 F1288.49
G1 X98.54 Y168.92 F707.67
G1 X98.87 Y169.11 F1421.91
G1 X98.95 Y169.15 F2771.14
G1 X99.46 Y169.40 F2253.91
G1 X100.40 Y169.81 F3849.57
G1 X101.20 Y170.07 F2950.70
G1 X101.80 Y170.25 F2237.89
G1 X102.06 Y170.34 F968.45
G1 X102.06 Y170.35 F206.63
G4 P4
G1 X102.03 Y170.37 F248.25
G1 X101.86 Y170.40 F822.76
G1 X101.80 Y170.40 F619.59
G1 X101.46 Y170.42 F1365.60
G1 X101.08 Y170.44 F1350.49
G1 X100.62 Y170.48 F1646.56
G1 X100.04 Y170.56 F2185.45
G1 X99.58 Y170.65 F1545.94
G1 X99.31 Y170.70 F1063.35
G1 X99.20 Y170.71 F389.18
G1 X99.19 Y170.68 F108.89
G1 X99.22 Y170.59 F392.00
G1 X99.33 Y170.41 F679.11
G1 X99.40 Y170.31 F840.57
G1 X99.48 Y170.19 F1204.22
G1 X99.71 Y169.95 F1186.87
G1 X99.91 Y169.74 F1460.68
G1 X100.01 Y169.65 F1971.91
G1 X100.17 Y169.45 F855.22
G1 X100.26 Y169.32 F591.28
G1 X100.27 Y169.27 F159.72
G1 X100.27 Y169.29 F36.46
G1 X100.27 Y169.36 F255.23
G1 X100.23 Y169.50 F522.04
G1 X100.14 Y169.70 F930.75
G4 P3
G1 X100.00 Y169.97 F1143.87
G1 X99.73 Y170.39 F2005.94
G1 X99.70 Y170.45 F1385.91
G1 X99.33 Y171.04 F2785.51
G1 X98.88 Y171.81 F3120.26
G1 X98.39 Y172.71 F3882.92
G1 X98.05 Y173.32 F2464.61
G1 X97.91 Y173.56 F2046.79
G1 X97.82 Y173.70 F1088.80
G1 X97.74 Y173.78 F438.21
G4 P3
G1 X97.75 Y173.67 F489.02
G1 X97.87 Y173.40 F1044.02
G1 X98.07 Y173.01 F1516.41
G1 X98.23 Y172.67 F1420.65
G1 X98.39 Y172.32 F1354.87
G1 X98.56 Y171.98 F1353.37
G1 X98.73 Y171.72 F1149.73
G1 X98.89 Y171.54 F829.17
G1 X99.06 Y171.45 F738.96
G1 X99.21 Y171.45 F516.33
G1 X99.38 Y171.55 F710.95
G1 X99.40 Y171.56 F692.75
G1 X99.52 Y171.80 F1148.48
G1 X99.55 Y172.13 F1171.87
G1 X99.55 Y172.25 F1487.62
G1 X99.49 Y172.65 F1881.38
G1 X99.35 Y173.14 F1899.78
G1 X99.09 Y173.72 F2375.65
G1 X98.82 Y174.12 F1815.60
G1 X98.52 Y174.46 F1512.55
G1 X98.38 Y174.58 F672.15
G1 X98.38 Y174.56 F72.92
G1 X98.50 Y174.37 F870.47
G1 X98.81 Y174.02 F1652.97
G1 X99.21 Y173.58 F2219.96
G1 X99.32 Y173.48 F2921.37
G1 X99.75 Y173.02 F2692.58
G1 X100.19 Y172.57 F2382.91
G1 X100.52 Y172.16 F1763.68
G1 X100.68 Y171.96 F1000.17
G1 X100.73 Y171.91 F438.21
G1 X100.77 Y171.89 F692.77
G1 X100.78 Y171.89 F123.93
G1 X100.87 Y171.89 F371.75
G1 X101.06 Y171.96 F747.93
G1 X101.26 Y172.04 F751.41
G1 X101.45 Y172.12 F738.02
G1 X101.55 Y172.18 F744.75
G1 X101.62 Y172.23 F761.53
G1 X101.72 Y172.34 F541.93
G1 X101.78 Y172.47 F692.95
G1 X101.80 Y172.51 F554.37
G1 X101.87 Y172.73 F796.30
G1 X101.91 Y172.92 F707.93
G1 X101.94 Y173.12 F745.17
G1 X101.96 Y173.31 F740.12
G1 X101.95 Y173.45 F448.98
G1 X101.88 Y173.55 F472.82
G1 X101.79 Y173.59 F395.88
G1 X101.76 Y173.60 F653.10
G1 X101.74 Y173.61 F346.38
G1 X101.64 Y173.61 F516.33
G1 X101.46 Y173.55 F657.08
G1 X101.24 Y173.46 F981.89
G1 X101.22 Y173.44 F876.41
G1 X100.95 Y173.33 F1078.80
G1 X100.70 Y173.23 F1074.02
G1 X100.66 Y173.21 F1385.54
G1 X100.27 Y173.06 F1489.04
G1 X99.88 Y172.89 F1561.13
G1 X99.42 Y172.70 F1766.53
G1 X98.81 Y172.45 F2481.53
G1 X98.17 Y172.19 F2436.61
G1 X97.56 Y171.97 F2282.59
