; generated by PrusaSlicer 2.3.1+win64 on 2021-06-03 at 01:08:08 UTC

; 

; external perimeters extrusion width = 0.45mm
; perimeters extrusion width = 0.45mm
; infill extrusion width = 0.45mm
; solid infill extrusion width = 0.45mm
; top infill extrusion width = 0.40mm
; first layer extrusion width = 0.42mm

M73 P0 R0 ; set progress
M73 Q0 S0 ; set progress
M201 X2000 Y2000 Z200 E5000 ; sets maximum accelerations, mm/sec^2
M203 X200 Y200 Z12 E120 ; sets maximum feedrates, mm/sec
M204 P1250 R1250 T1250 ; sets acceleration (P, T) and retract acceleration (R), mm/sec^2
M205 X8.00 Y8.00 Z0.40 E4.50 ; sets the jerk limits, mm/sec
M205 S0 T0 ; sets the minimum extruding and travel feed rate, mm/sec
M107 ; fan off
;TYPE:Custom
M862.3 P "MK3S" ; printer model check
M862.1 P0.4 ; nozzle diameter check
M115 U3.9.2 ; tell printer latest fw version
G90 ; use absolute coordinates
M83 ; extruder relative mode
; G28 W ; home all without mesh bed level
; G1 X0 Y0 F1000.0 ; go outside print area

; Don't change E values below. Excessive value can damage the printer.

M907 E538 ; set extruder motor current
G21 ; set units to millimeters
G90 ; use absolute coordinates
M83 ; use relative distances for extrusion
;LAYER_CHANGE
;Z:0.2
;HEIGHT:0.2
;BEFORE_LAYER_CHANGE
;0.2

; --------------------- HEADER END ---------------------

G1 Z20 ; raise nozzle before travelling to tablet
G1 X88.000 Y172.543 F6000 ; move nozzle on top of start song button
G1 Z14.5 ; lower nozzle to tablet
G1 Z14.00 F9000 ; tap press
G1 Z14.50 F9000 ; tap release
G1 X82.764 Y173.384 F9000 ; move to first hit object in the map
G4 P1090 ; LOCK wait until first object
; START MAP

G1 X83.477 Y173.581 F188.31986686074103 ; (2) distance: 0.74mm
G1 X82.839 Y173.187 F190.90807758860524 ; (3) distance: 0.75mm
G1 X83.552 Y173.424 F191.23831191411253 ; (4)===D distance: 0.75mm

G1 X84.527 Y171.216 F614.4072408007933 ; (1) distance: 2.41mm
G1 X83.927 Y171.650 F377.0881691177326 ; (2) distance: 0.74mm
G1 X83.205 Y171.512 F374.4497312048996 ; (3) distance: 0.74mm
G1 X83.177 Y171.295 F111.31156204666497 ; (4) distance: 0.22mm
G1 X82.726 Y172.044 F444.9520018596611 ; (5)===D distance: 0.87mm

G1 X84.527 Y174.133 F351.1221030822212 ; (1)===D distance: 2.76mm
G1 X84.752 Y172.714 F365.7800923565977 ; (2)===D distance: 1.44mm

G1 X86.178 Y174.034 F494.7725677331517 ; (1)===D distance: 1.94mm
G1 X83.102 Y172.872 F556.7334046083433 ; (2) distance: 3.29mm
G1 X83.890 Y173.305 F457.9649772672425 ; (3)===D distance: 0.90mm

G1 X82.576 Y171.256 F619.7562556607943 ; (1) distance: 2.43mm
G1 X82.239 Y172.123 F473.8445643552277 ; (2) distance: 0.93mm

G1 X83.477 Y171.019 F844.6023408204834 ; (1) distance: 1.66mm
G1 X83.139 Y171.886 F473.8445643552277 ; (2) distance: 0.93mm
G1 X82.051 Y172.044 F559.8766729182066 ; (3) distance: 1.10mm
G1 X82.389 Y171.177 F473.8445643552277 ; (4) distance: 0.93mm

G1 X82.801 Y172.675 F791.091661284121 ; (1)===D distance: 1.55mm
G1 X83.627 Y172.911 F145.75129854629301 ; (2) distance: 0.86mm

G1 X81.713 Y173.463 F1014.1380313967153 ; (1)===D distance: 1.99mm
G1 X82.126 Y172.793 F200.3645097333163 ; (2)===D distance: 0.79mm

G1 X83.777 Y173.739 F484.4524151083559 ; (1) distance: 1.90mm
G1 X83.139 Y171.965 F959.7850586834461 ; (2) distance: 1.88mm

G1 X83.627 Y172.911 F541.9523672063549 ; (1) distance: 1.06mm
G1 X84.265 Y171.138 F959.7850586834302 ; (2) distance: 1.88mm

G1 X86.066 Y171.965 F1000.9156239008616 ; (1)===D distance: 1.98mm
G1 X85.165 Y171.532 F169.64514057525145 ; (2) distance: 1.00mm

G1 X83.777 Y173.739 F1327.7698814267064 ; (1)===D distance: 2.61mm
G1 X84.227 Y174.291 F120.88520845103905 ; (2) distance: 0.71mm

G1 X85.428 Y172.951 F916.2250599639258 ; (1)===D distance: 1.80mm
G1 X86.028 Y173.699 F244.3712368653598 ; (2)===D distance: 0.96mm

G1 X83.102 Y172.556 F799.9682519208666 ; (1)===D distance: 3.14mm
G1 X83.702 Y170.980 F859.0385768741611 ; (2)===D distance: 1.69mm
G1 X82.089 Y171.216 F830.3615640783039 ; (3)===D distance: 1.63mm
G1 X83.739 Y172.084 F949.5884957813598 ; (4) distance: 1.86mm

G4 P119.0 ; (1) stationary
G1 X86.178 Y171.216 F439.36125011720753 ; (2) distance: 2.59mm

G1 X83.702 Y170.980 F1256.2151600925044 ; (1) distance: 2.49mm
G1 X85.878 Y172.005 F408.29803075674124 ; (2) distance: 2.41mm
G1 X85.953 Y172.754 F383.2409579781629 ; (3)===D distance: 0.75mm
G1 X84.527 Y173.581 F419.7580248029005 ; (4)===D distance: 1.65mm

G1 X83.477 Y172.281 F425.69515167949413 ; (1) distance: 1.67mm
G1 X83.890 Y174.015 F907.7483897809971 ; (2) distance: 1.78mm

G1 X84.377 Y171.965 F1072.7935515593726 ; (1) distance: 2.11mm
G1 X82.314 Y172.714 F1117.9111465349238 ; (2) distance: 2.20mm

G1 X84.527 Y173.581 F1210.6769979144779 ; (1)===D distance: 2.38mm
G1 X83.890 Y172.990 F221.43535813132235 ; (2)===D distance: 0.87mm

G1 X86.028 Y172.281 F573.7149357423319 ; (1)===D distance: 2.25mm

G1 X81.601 Y172.399 F563.8453786433683 ; (1)===D distance: 4.43mm
G1 X83.777 Y171.532 F593.957764287257 ; (2) distance: 2.34mm

G1 X82.952 Y173.069 F888.4591163803062 ; (1)===D distance: 1.74mm
G1 X84.002 Y172.635 F289.3735120982353 ; (2) distance: 1.14mm
G1 X82.726 Y173.226 F715.9909583654592 ; (3)===D distance: 1.41mm
G1 X85.090 Y174.054 F637.6849230052554 ; (4)===D distance: 2.50mm

G1 X83.730 Y170.694 F461.4610107653034 ; (1)===D distance: 3.62mm
G1 X85.015 Y172.754 F618.0471321133186 ; (2) distance: 2.43mm
G1 X83.177 Y172.084 F996.4560464254163 ; (3)===D distance: 1.96mm
G1 X82.201 Y172.044 F165.72553762146288 ; (4)===D distance: 0.98mm

G1 X84.265 Y173.187 F600.6398189070414 ; (1) distance: 2.36mm
G1 X83.589 Y171.295 F1022.9113937501056 ; (2) distance: 2.01mm
G1 X83.439 Y173.699 F1216.4344680993413 ; (3) distance: 2.41mm
G1 X84.715 Y171.532 F1280.821259879567 ; (4) distance: 2.52mm

G1 X85.540 Y173.778 F1218.774127361709 ; (1) distance: 2.39mm
G1 X84.959 Y173.433 F344.3051274196006 ; (2) distance: 0.68mm
G1 X84.462 Y173.916 F352.8985856891033 ; (3)===D distance: 0.69mm

G1 X82.764 Y172.359 F586.5080400413037 ; (1) distance: 2.30mm
G1 X85.728 Y172.438 F1509.9542795437524 ; (2) distance: 2.97mm
G1 X82.839 Y173.187 F1519.8239373524173 ; (3) distance: 2.98mm

G1 X83.777 Y171.177 F1129.54196376061 ; (1)===D distance: 2.22mm
G1 X83.477 Y172.675 F259.27623491341643 ; (2) distance: 1.53mm

G1 X83.552 Y172.832 F44.455488295801544 ; (1) distance: 0.17mm
G1 X84.828 Y171.847 F820.8324532819495 ; (2) distance: 1.61mm
G1 X85.615 Y173.818 F1080.7451843275908 ; (3) distance: 2.12mm
G1 X83.880 Y171.837 F1340.8964395899143 ; (4) distance: 2.63mm

G1 X86.159 Y172.694 F1240.0953001935034 ; (1)===D distance: 2.44mm

G1 X82.239 Y174.054 F527.215656819182 ; (1)===D distance: 4.15mm
G1 X82.089 Y172.872 F202.31093576868662 ; (2) distance: 1.19mm

G1 X83.833 Y174.034 F1067.6599688870692 ; (1)===D distance: 2.10mm
G1 X82.914 Y172.438 F312.66467476294196 ; (2) distance: 1.84mm

G1 X85.953 Y173.345 F1615.0094307401318 ; (1)===D distance: 3.17mm
G1 X85.240 Y174.054 F128.0373065220831 ; (2)===D distance: 1.01mm

G1 X84.865 Y171.433 F337.06640130914764 ; (1) distance: 2.65mm
G1 X83.214 Y172.517 F1005.6751764670814 ; (2) distance: 1.97mm
G1 X85.766 Y172.951 F1317.8715538320084 ; (3) distance: 2.59mm
G1 X83.289 Y171.453 F1473.7241065347782 ; (4) distance: 2.89mm

G1 X84.115 Y173.108 F934.0856454058206 ; (1) distance: 1.85mm
G1 X84.265 Y170.822 F1166.569446799879 ; (2) distance: 2.29mm
G1 X84.903 Y173.739 F1520.2877580140005 ; (3) distance: 2.99mm
G1 X85.728 Y170.980 F1466.4395637981854 ; (4) distance: 2.88mm

G1 X83.477 Y171.571 F1185.2654104368278 ; (1) distance: 2.33mm
G1 X86.066 Y171.808 F1323.8430007013353 ; (2) distance: 2.60mm
G1 X83.027 Y172.478 F1584.797066832116 ; (3) distance: 3.11mm
G1 X85.465 Y172.478 F1241.9283826462206 ; (4) distance: 2.44mm

G1 X82.651 Y171.729 F1482.864124982704 ; (1) distance: 2.91mm
G1 X83.890 Y173.384 F1052.665251005213 ; (2) distance: 2.07mm
G1 X83.664 Y171.492 F970.159739880506 ; (3) distance: 1.91mm
G1 X83.027 Y174.133 F1383.3669796892452 ; (4) distance: 2.72mm

G1 X84.527 Y172.044 F1309.8031122001407 ; (1) distance: 2.57mm
G1 X82.464 Y173.148 F1191.6848409378292 ; (2) distance: 2.34mm
G1 X84.903 Y173.345 F1245.9760377374803 ; (3) distance: 2.45mm
G1 X83.027 Y170.980 F1537.1272805625329 ; (4) distance: 3.02mm

G1 X84.415 Y173.896 F1644.853066944746 ; (1) distance: 3.23mm
G1 X84.377 Y171.098 F1425.1020855003692 ; (2) distance: 2.80mm
G1 X84.227 Y174.015 F1487.1492849064746 ; (3) distance: 2.92mm
G1 X84.565 Y170.980 F1554.932042246431 ; (4) distance: 3.05mm

G1 X86.103 Y173.660 F1573.6102419356116 ; (1)===D distance: 3.09mm
G1 X82.314 Y171.768 F716.9464758005809 ; (2) distance: 4.24mm
G1 X82.989 Y171.059 F498.7880743962454 ; (3)===D distance: 0.98mm
G1 X82.314 Y171.768 F249.3940371981227 ; (4)===D distance: 0.98mm

G1 X84.002 Y172.162 F441.45522486197837 ; (1) distance: 1.73mm
G1 X82.089 Y172.714 F1014.1380313967153 ; (2) distance: 1.99mm
G1 X84.677 Y173.108 F1333.5441307770345 ; (3) distance: 2.62mm
G1 X82.426 Y171.926 F1294.8934033382225 ; (4) distance: 2.54mm

G1 X84.752 Y171.295 F1227.3614766977364 ; (1) distance: 2.41mm
G1 X84.415 Y173.936 F1355.6442549450244 ; (2) distance: 2.66mm
G1 X83.177 Y171.453 F1412.9026569163755 ; (3) distance: 2.77mm
G1 X83.739 Y174.291 F1473.1908298929538 ; (4) distance: 2.89mm

G1 X84.152 Y172.084 F1143.4053222061364 ; (1) distance: 2.25mm
G1 X85.165 Y174.172 F1182.2078346841533 ; (2) distance: 2.32mm
G1 X85.503 Y171.650 F1295.942950975829 ; (3) distance: 2.54mm
G1 X83.139 Y173.108 F1414.3455335809356 ; (4) distance: 2.78mm

G1 X86.066 Y172.832 F1496.9213559181314 ; (1) distance: 2.94mm
G1 X83.327 Y172.202 F1431.2697049834135 ; (2) distance: 2.81mm
G1 X85.615 Y171.768 F1176.341829719374 ; (3) distance: 2.33mm
G1 X83.814 Y173.148 F1155.2234239847414 ; (4) distance: 2.27mm

G1 X84.978 Y171.059 F1217.501417712773 ; (1) distance: 2.39mm
G1 X84.190 Y173.857 F1480.3861477231503 ; (2) distance: 2.91mm
G1 X84.227 Y170.901 F1505.3754798691068 ; (3) distance: 2.96mm
G1 X84.903 Y174.133 F1681.2957400636687 ; (4) distance: 3.30mm

G1 X84.865 Y172.556 F803.0295868769065 ; (1) distance: 1.58mm
G1 X82.614 Y173.305 F1208.1539086159091 ; (2) distance: 2.37mm
G1 X85.615 Y173.266 F1528.6589976616513 ; (3) distance: 3.00mm
G1 X82.839 Y172.281 F1500.2776059923294 ; (4) distance: 2.95mm

G1 X84.190 Y173.896 F1072.4919249780583 ; (1)===D distance: 2.11mm
G1 X84.227 Y171.295 F441.5871689044128 ; (2) distance: 2.60mm

G1 X84.865 Y172.556 F719.7064623600359 ; (1)===D distance: 1.41mm
G1 X81.939 Y172.241 F499.64605841424526 ; (2) distance: 2.94mm

G1 X83.139 Y173.581 F916.2250599639208 ; (1) distance: 1.80mm
G1 X82.764 Y172.478 F593.554541138065 ; (2) distance: 1.17mm
G1 X82.426 Y174.251 F919.3772372333694 ; (3) distance: 1.81mm
G1 X83.627 Y172.320 F1148.349689309383 ; (4) distance: 2.27mm

G1 X84.715 Y173.936 F992.0361938259831 ; (1) distance: 1.95mm
G1 X82.764 Y172.478 F1240.3911119381694 ; (2) distance: 2.44mm
G1 X85.165 Y172.123 F1236.0908199974217 ; (3) distance: 2.43mm
G1 X82.876 Y173.424 F1340.541665550383 ; (4) distance: 2.63mm

G1 X85.315 Y172.951 F1265.0653495476736 ; (1) distance: 2.48mm
G1 X83.702 Y171.256 F1191.5492888354568 ; (2) distance: 2.34mm
G1 X83.627 Y173.739 F1264.9908554009303 ; (3) distance: 2.48mm
G1 X84.677 Y171.414 F1299.3768409412069 ; (4) distance: 2.55mm

G1 X85.053 Y174.212 F1437.7263551729525 ; (1) distance: 2.82mm
G1 X84.152 Y171.847 F1288.557865311228 ; (2) distance: 2.53mm
G1 X83.627 Y173.739 F999.8098864205851 ; (3) distance: 1.96mm
G1 X85.353 Y171.965 F1260.2203254216745 ; (4) distance: 2.47mm

G1 X84.565 Y173.345 F808.9691123687953 ; (1) distance: 1.59mm
G1 X85.428 Y171.059 F1244.2511715587827 ; (2) distance: 2.44mm
G1 X85.878 Y173.542 F1285.0332744076577 ; (3) distance: 2.52mm
G1 X84.040 Y171.729 F1314.8586742764253 ; (4) distance: 2.58mm

G1 X85.916 Y172.596 F1052.4320248217248 ; (1) distance: 2.07mm
G1 X83.402 Y172.872 F1287.8276180505854 ; (2) distance: 2.53mm
G1 X85.278 Y173.108 F962.8891729075622 ; (3) distance: 1.89mm
G1 X83.027 Y172.084 F1259.5714041787983 ; (4) distance: 2.47mm

G1 X84.452 Y173.857 F1149.1503072365913 ; (1) distance: 2.28mm
G1 X84.152 Y170.941 F1493.0291229669922 ; (2) distance: 2.93mm
G1 X84.490 Y174.054 F1594.832119643464 ; (3) distance: 3.13mm
G1 X84.115 Y170.783 F1676.736325000418 ; (4) distance: 3.29mm

G1 X85.278 Y173.108 F1324.0075957048743 ; (1)===D distance: 2.60mm
G1 X85.728 Y173.778 F137.02399159634885 ; (2) distance: 0.81mm

G1 X84.715 Y172.162 F971.2100124027019 ; (1) distance: 1.91mm
G1 X84.340 Y174.212 F1060.9885673392128 ; (2) distance: 2.08mm
G1 X83.777 Y171.689 F1316.0687791575624 ; (3) distance: 2.58mm
G1 X84.415 Y173.975 F1208.530572958919 ; (4) distance: 2.37mm

G1 X84.640 Y171.216 F1409.5734488115613 ; (1) distance: 2.77mm
G1 X83.102 Y173.621 F1453.449114441552 ; (2) distance: 2.85mm
G1 X85.428 Y172.714 F1271.3703430130975 ; (3) distance: 2.50mm
G1 X82.426 Y172.793 F1529.0542019860493 ; (4) distance: 3.00mm

G1 X85.053 Y173.502 F1385.3924869148182 ; (1) distance: 2.72mm
G1 X83.214 Y172.399 F1091.9314065149626 ; (2) distance: 2.14mm
G1 X85.390 Y171.886 F1138.482458049111 ; (3) distance: 2.24mm
G1 X83.589 Y173.029 F1086.2150845846593 ; (4) distance: 2.13mm

G1 X85.916 Y173.463 F1205.0050738131686 ; (1) distance: 2.37mm
G1 X84.002 Y171.965 F1227.0965566268903 ; (2) distance: 2.43mm
G1 X83.214 Y174.133 F1174.5143304003336 ; (3) distance: 2.31mm
G1 X85.428 Y172.714 F1338.9616152062636 ; (4) distance: 2.63mm

G1 X82.689 Y173.345 F1431.2697049834208 ; (1) distance: 2.81mm
G1 X85.015 Y171.926 F693.7823218814848 ; (2) distance: 2.72mm
G1 X82.351 Y171.453 F688.8905515269872 ; (3) distance: 2.71mm

G1 X85.428 Y172.714 F846.6330490473265 ; (1) distance: 3.33mm
G1 X85.240 Y172.635 F103.62322931907757 ; (2) distance: 0.20mm
G1 X81.863 Y172.478 F860.7330450818203 ; (3) distance: 3.38mm
G1 X82.201 Y172.320 F189.7759742598212 ; (4) distance: 0.37mm

G1 X84.002 Y172.556 F462.4941746608694 ; (1) distance: 1.82mm

; ------------------- FOOTER BEGIN -------------------

;TYPE:Custom
; Filament-specific end gcode
; G4 ; wait

; G28 W ; home all without mesh bed level
G1 X10.0 F4000 ; move aside
M84 ; disable motors
M73 P100 R0
M73 Q100 S0