; generated by PrusaSlicer 2.3.1+win64 on 2021-06-03 at 01:08:08 UTC

; 

; external perimeters extrusion width = 0.45mm
; perimeters extrusion width = 0.45mm
; infill extrusion width = 0.45mm
; solid infill extrusion width = 0.45mm
; top infill extrusion width = 0.40mm
; first layer extrusion width = 0.42mm

M73 P0 R0 ; set progress
M73 Q0 S0 ; set progress
M201 X2000 Y2000 Z200 E5000 ; sets maximum accelerations, mm/sec^2
M203 X200 Y200 Z12 E120 ; sets maximum feedrates, mm/sec
M204 P1250 R1250 T1250 ; sets acceleration (P, T) and retract acceleration (R), mm/sec^2
M205 X8.00 Y8.00 Z0.40 E4.50 ; sets the jerk limits, mm/sec
M205 S0 T0 ; sets the minimum extruding and travel feed rate, mm/sec
M107 ; fan off
;TYPE:Custom
M862.3 P "MK3S" ; printer model check
M862.1 P0.4 ; nozzle diameter check
M115 U3.9.2 ; tell printer latest fw version
G90 ; use absolute coordinates
M83 ; extruder relative mode
G28 W ; home all without mesh bed level
G1 X0 Y0 F1000.0 ; go outside print area

; Don't change E values below. Excessive value can damage the printer.

M907 E538 ; set extruder motor current
G21 ; set units to millimeters
G90 ; use absolute coordinates
M83 ; use relative distances for extrusion
;LAYER_CHANGE
;Z:0.2
;HEIGHT:0.2
;BEFORE_LAYER_CHANGE
;0.2

; --------------------- HEADER END ---------------------

G1 Z20 ; raise nozzle before travelling to tablet
G1 X96.000 Y170.500 F9000 ; move nozzle on top of start song button
G1 Z14.5 ; lower nozzle to tablet
G1 Z14.00 F9000 ; tap press
G1 Z14.50 F9000 ; tap release
G4 P500 ; wait
G1 X95.200 Y166.450 F2000 ; move nozzle to skip button 
G1 Z14.00 F9000 ; tap press
G1 Z14.50 F9000 ; tap release
G4 P500 ; wait
G1 X91.475 Y170.271 F2000 ; move to first hit object in the map
G4 P1700.0 ; wait until first object
; START MAP

G1 X88.886 Y167.136 F2238 ; move to circle 2
G4 P50
G1 X88.905 Y167.493 F397 ; move to circle 3
G4 P50
G1 X88.942 Y167.850 F395 ; move to circle 4
G4 P50
G1 X88.980 Y168.187 F374 ; move to circle 5
G4 P50
G1 X89.017 Y168.544 F395 ; move to circle 6
G4 P50
G1 X92.582 Y171.340 F2505 ; move to circle 7
G4 P80
G1 X91.944 Y168.788 F968 ; move to circle 8
G4 P100
G1 X90.555 Y168.206 F1657 ; move to circle 9
G4 P50
G1 X90.387 Y169.257 F1183 ; move to circle 10
G4 P80
G1 X86.635 Y172.917 F1929 ; move to circle1
G4 P20


G1 X84.627 Y168.431 F5410 ; move to circle2
G1 X87.873 Y171.810 F5157 ; move to circle1
G1 X84.440 Y168.657 F5132 ; move to circle2
G1 X87.798 Y169.464 F3837 ; move to circle1
G1 X84.665 Y171.960 F4410 ; move to circle2
G1 X86.335 Y167.943 F4788 ; move to circle1
G1 X86.710 Y173.123 F5770 ; move to circle2
G1 X83.352 Y170.158 F4932 ; move to circle1
G1 X88.004 Y171.678 F5388 ; move to circle2
G1 X83.596 Y170.008 F5238 ; move to circle1
G1 X88.304 Y171.190 F5345 ; move to circle2
G1 X84.140 Y171.641 F4612 ; move to circle1
G1 X87.122 Y167.549 F5626 ; move to circle2
G1 X85.847 Y172.560 F5693 ; move to circle1
G1 X84.215 Y167.850 F5488 ; move to circle2
G1 X88.548 Y170.834 F5793 ; move to circle1
G1 X83.915 Y171.753 F5249 ; move to circle2
G1 X89.974 Y171.659 F6672 ; move to circle1
G1 X85.903 Y170.458 F4673 ; move to circle2
G1 X89.261 Y173.067 F4725 ; move to circle1
G1 X87.948 Y168.169 F5583 ; move to circle2
G1 X89.073 Y173.255 F5735 ; move to circle
G1 X90.499 Y169.295 F4676 ; move to circle
G1 X86.147 Y172.373 F5869 ; move to circle
G1 X87.535 Y172.222 F1537 ; move to circle
G4 P20
G1 X92.131 Y171.491 F5124 ; move to circle
G1 X90.724 Y171.340 F1572 ; move to circle
G4 P20
G1 X84.684 Y170.927 F6666 ; move to circle
G1 X86.072 Y170.777 F1537 ; move to circle
G4 P20
G1 X91.850 Y173.405 F7053 ; move to circle
G1 X90.443 Y173.255 F1558 ; move to circle
G4 P20
G1 X86.016 Y173.011 F4881 ; move to circle
; G1 X89.017 Y169.070 F5504 ; move to circle
; G1 X89.055 Y172.917 F4236 ; move to circle
; G1 X86.053 Y168.582 F5805 ; move to circle
; G1 X87.104 Y171.810 F3772 ; move to circle
; G1 X91.193 Y172.185 F4521 ; move to circle
; G1 X87.591 Y173.480 F4214 ; move to circle
; G1 X88.004 Y168.112 F5927 ; move to circle
; G1 X83.446 Y170.984 F5986 ; move to circle
; G1 X88.098 Y170.271 F5182 ; move to circle
; G1 X83.577 Y170.834 F5016 ; move to circle
; G1 X89.655 Y171.078 F6759 ; move to circle
; G1 X85.115 Y169.464 F5304 ; move to circle
; G1 X86.804 Y173.461 F4777 ; move to circle
; G1 X85.228 Y169.313 F4930 ; move to circle
; G1 X88.267 Y172.523 F4866 ; move to circle
; G1 X86.897 Y168.338 F4848 ; move to circle
; G1 X85.866 Y171.866 F4047 ; move to circle
; G1 X84.777 Y167.718 F4764 ; move to circle
; G1 X89.130 Y169.689 F5260 ; move to circle
; G1 X84.684 Y170.759 F5034 ; move to circle
; G1 X88.623 Y168.225 F5204 ; move to circle
; G1 X83.577 Y168.394 F5559 ; move to circle
; G1 X86.016 Y172.016 F4807 ; move to circle
; G1 X85.640 Y167.005 F5583 ; move to circle
; G1 X84.721 Y171.547 F5101 ; move to circle
; G1 X88.323 Y171.190 F3985 ; move to circle
; G1 X83.371 Y169.914 F5683 ; move to circle
; G1 X87.760 Y169.576 F4847 ; move to circle
; G1 X85.378 Y166.949 F3905 ; move to circle
; G1 X86.353 Y170.777 F4350 ; move to circle
; G1 X87.535 Y166.799 F4612 ; move to circle
; G1 X87.892 Y169.313 F2796 ; move to circle
; G1 X88.098 Y170.721 F1566 ; move to circle
; G1 X84.777 Y173.330 F4692 ; move to circle
; G1 X84.984 Y171.941 F1546 ; move to circle
; G1 X89.111 Y173.724 F4949 ; move to circle
; G1 X88.905 Y172.316 F1581 ; move to circle
; G1 X85.584 Y167.925 F6061 ; move to circle
; G1 X85.378 Y169.313 F1546 ; move to circle
; G1 X87.423 Y171.678 F3442 ; move to circle
; G1 X83.633 Y170.477 F4417 ; move to circle
; G1 X87.685 Y166.911 F5942 ; move to circle
; G1 X85.528 Y171.115 F5202 ; move to circle
; G1 X88.379 Y169.576 F3600 ; move to circle
; G1 X85.284 Y168.131 F3761 ; move to circle
; G1 X87.254 Y171.247 F4058 ; move to circle
; G1 X89.918 Y168.506 F4246 ; move to circle
; G1 X90.631 Y173.029 F5041 ; move to circle
; G1 X89.224 Y172.898 F1556 ; move to circle
; G1 X85.547 Y173.123 F4093 ; move to circle
; G1 X89.317 Y170.383 F5132 ; move to circle
; G1 X84.759 Y170.852 F5045 ; move to circle
; G1 X87.760 Y173.029 F4082 ; move to circle
; G1 X86.297 Y169.595 F4148 ; move to circle
; G1 X85.772 Y173.386 F4213 ; move to circle
; G1 X84.646 Y169.013 F4971 ; move to circle
; G1 X88.042 Y171.284 F4539 ; move to circle
; G1 X83.802 Y172.560 F4874 ; move to circle
; G1 X88.060 Y173.086 F4724 ; move to circle
; G1 X86.034 Y171.659 F2753 ; move to circle
; G1 X90.312 Y170.815 F4800 ; move to circle
; G1 X85.059 Y170.383 F5802 ; move to circle
; G1 X89.711 Y172.879 F5813 ; move to circle
; G1 X85.640 Y173.367 F4556 ; move to circle
; G1 X85.809 Y171.978 F1540 ; move to circle
; G1 X86.747 Y169.708 F2705 ; move to circle
; G1 X88.267 Y173.836 F4888 ; move to circle
; G1 X83.971 Y170.158 F6226 ; move to circle
; G1 X89.055 Y169.407 F5658 ; move to circle
; G1 X85.340 Y170.946 F4467 ; move to circle
; G1 X89.336 Y167.399 F5882 ; move to circle
; G1 X84.384 Y167.718 F5464 ; move to circle
; G1 X85.753 Y167.962 F1546 ; move to circle
; G1 X87.760 Y167.681 F2231 ; move to circle
; G1 X86.053 Y172.279 F5400 ; move to circle
; G1 X90.837 Y168.206 F6916 ; move to circle
; G1 X89.111 Y172.222 F4857 ; move to circle
; G1 X89.261 Y167.043 F5705 ; move to circle
; G1 X91.231 Y171.753 F5621 ; move to circle
; G1 X87.029 Y169.163 F5485 ; move to circle
; G1 X86.897 Y170.552 F1536 ; move to circle
; G1 X89.843 Y170.271 F3257 ; move to circle
; G1 X84.477 Y167.437 F6742 ; move to circle
; G1 X87.629 Y172.523 F6587 ; move to circle
; G1 X86.034 Y167.493 F5809 ; move to circle
; G1 X86.410 Y171.472 F4400 ; move to circle
; G1 X88.135 Y166.742 F5594 ; move to circle
; G1 X92.056 Y170.590 F6047 ; move to circle
; G1 X90.649 Y170.759 F1560 ; move to circle
; G1 X87.742 Y172.879 F3999 ; move to circle
; G1 X90.537 Y169.107 F5169 ; move to circle
; G1 X84.890 Y171.003 F6557 ; move to circle
; G1 X90.931 Y171.003 F6712 ; move to circle
; G1 X86.297 Y172.954 F5535 ; move to circle
; G1 X85.528 Y168.525 F4949 ; move to circle
; G1 X84.646 Y173.592 F5715 ; move to circle
; G1 X87.629 Y169.689 F5409 ; move to circle
; G1 X83.614 Y171.997 F5098 ; move to circle
; G1 X88.848 Y172.748 F5821 ; move to circle
; G1 X84.402 Y170.252 F5665 ; move to circle
; G1 X90.368 Y171.059 F6627 ; move to circle
; G1 X85.809 Y172.429 F5240 ; move to circle
; G1 X92.244 Y171.866 F7177 ; move to circle
; G1 X88.361 Y169.389 F5071 ; move to circle
; G1 X90.330 Y173.273 F4795 ; move to circle
; G1 X91.812 Y170.196 F3796 ; move to circle
; G1 X87.085 Y171.284 F5341 ; move to circle
; G1 X90.011 Y168.375 F4543 ; move to circle
; G1 X88.192 Y172.617 F5081 ; move to circle
; G1 X86.653 Y168.563 F4818 ; move to circle
; G1 X86.935 Y173.799 F5773 ; move to circle
; G1 X89.880 Y169.952 F5334 ; move to circle
; G1 X85.378 Y172.373 F5680 ; move to circle
; G1 X89.486 Y173.592 F4718 ; move to circle
; G1 X86.447 Y168.826 F6224 ; move to circle
; G1 X83.764 Y172.147 F4744 ; move to circle
; G1 X88.661 Y170.965 F5545 ; move to circle
; G1 X84.421 Y169.464 F4952 ; move to circle
; G1 X87.066 Y173.592 F5448 ; move to circle
; G1 X88.736 Y168.000 F6426 ; move to circle
; G1 X88.905 Y169.407 F1561 ; move to circle
; G1 X86.109 Y171.078 F3585 ; move to circle
; G1 X85.922 Y172.485 F1578 ; move to circle
; G1 X87.029 Y167.549 F5569 ; move to circle
; G1 X86.841 Y168.957 F1563 ; move to circle
; G1 X88.755 Y172.279 F4259 ; move to circle
; G1 X88.923 Y173.686 F1561 ; move to circle
; G1 X86.410 Y170.834 F4186 ; move to circle
; G1 X85.734 Y166.836 F4505 ; move to circle
; G1 X88.680 Y169.689 F4514 ; move to circle
; G1 X84.271 Y170.796 F5004 ; move to circle
; G1 X89.861 Y171.209 F6171 ; move to circle
; G1 X86.897 Y168.826 F4226 ; move to circle
; G1 X88.323 Y173.104 F4965 ; move to circle
; G1 X90.405 Y168.450 F5613 ; move to circle
; G1 X86.166 Y171.284 F5666 ; move to circle
; G1 X91.193 Y172.204 F5627 ; move to circle
; G1 X84.909 Y169.839 F7392 ; move to circle
; G1 X86.691 Y173.180 F4207 ; move to circle
; G1 X88.361 Y167.512 F6505 ; move to circle
; G1 X88.286 Y171.866 F4794 ; move to circle
; G1 X85.078 Y168.375 F5268 ; move to circle
; G1 X89.542 Y170.271 F5340 ; move to circle
; G1 X84.308 Y171.247 F5861 ; move to circle
; G1 X88.961 Y173.386 F5638 ; move to circle
; G1 X90.405 Y168.544 F5614 ; move to circle
; G1 X85.472 Y169.933 F5643 ; move to circle
; G1 X90.537 Y171.753 F5926 ; move to circle
; G1 X86.710 Y168.019 F5941 ; move to circle
; G1 X85.715 Y172.617 F5179 ; move to circle
; G1 X84.590 Y168.338 F4871 ; move to circle
; G1 X88.886 Y167.380 F4890 ; move to circle
; G1 X83.521 Y167.061 F5917 ; move to circle
; G1 X86.841 Y170.421 F5200 ; move to circle
; G1 X83.689 Y171.303 F3603 ; move to circle
; G1 X88.436 Y168.901 F5911 ; move to circle
; G1 X84.721 Y168.112 F4180 ; move to circle
; G1 X87.760 Y173.555 F6863 ; move to circle
; G1 X87.648 Y172.166 F1548 ; move to circle
; G1 X84.796 Y172.523 F3164 ; move to circle
; G1 X89.655 Y170.815 F5670 ; move to circle
; G1 X83.427 Y171.003 F6923 ; move to circle
; G1 X89.224 Y173.348 F6885 ; move to circle
; G1 X86.841 Y167.324 F7132 ; move to circle
; G1 X86.691 Y172.654 F5924 ; move to circle
; G1 X91.644 Y170.083 F6143 ; move to circle
; G1 X85.472 Y171.134 F6893 ; move to circle
; G1 X90.874 Y173.086 F6324 ; move to circle
; G1 X89.055 Y167.962 F6041 ; move to circle
; G1 X87.591 Y173.630 F6444 ; move to circle
; G1 X90.424 Y169.088 F5893 ; move to circle
; G1 X84.384 Y169.783 F6756 ; move to circle
; G1 X89.824 Y171.265 F6208 ; move to circle
; G1 X84.252 Y172.391 F6258 ; move to circle
; G1 X88.661 Y169.557 F5823 ; move to circle
; G1 X85.753 Y173.123 F5065 ; move to circle
; G1 X86.297 Y168.206 F5446 ; move to circle
; G1 X87.854 Y173.724 F6312 ; move to circle
; G1 X84.459 Y168.469 F6952 ; move to circle
; G1 X90.537 Y169.689 F6825 ; move to circle
; G1 X84.271 Y172.504 F7562 ; move to circle
; G1 X87.892 Y167.230 F7108 ; move to circle
; G1 X89.130 Y172.823 F6306 ; move to circle
; G1 X83.202 Y170.327 F7081 ; move to circle
; G1 X89.355 Y168.431 F7154 ; move to circle
; G1 X86.597 Y173.649 F6497 ; move to circle
; G1 X85.715 Y167.155 F7214 ; move to circle
; G1 X90.893 Y171.997 F7877 ; move to circle
; G1 X84.140 Y173.386 F7591 ; move to circle
; G1 X87.760 Y166.986 F8095 ; move to circle
; G1 X88.173 Y173.574 F7266 ; move to circle
; G1 X83.783 Y168.525 F7433 ; move to circle
; G1 X83.915 Y169.933 F1556 ; move to circle
; G1 X84.102 Y173.161 F3560 ; move to circle
; G1 X89.336 Y167.943 F8211 ; move to circle
; G1 X86.691 Y173.911 F7187 ; move to circle
; G1 X85.640 Y167.549 F7099 ; move to circle
; G1 X88.286 Y173.442 F7177 ; move to circle
; G1 X84.271 Y169.013 F6581 ; move to circle
; G1 X90.724 Y170.327 F7250 ; move to circle
; G1 X83.689 Y172.091 F7985 ; move to circle
; G1 X89.636 Y168.807 F7548 ; move to circle
; G1 X88.023 Y173.255 F5209 ; move to circle
; G1 X87.104 Y167.174 F6770 ; move to circle
; G1 X86.485 Y173.668 F7248 ; move to circle
; G1 X90.837 Y167.681 F8149 ; move to circle
; G1 X84.946 Y168.732 F6587 ; move to circle
; G1 X92.113 Y169.783 F8048 ; move to circle
; G1 X88.004 Y173.067 F5791 ; move to circle
; G1 X89.261 Y166.780 F7059 ; move to circle
; G1 X91.569 Y172.973 F7343 ; move to circle
; G1 X84.740 Y170.458 F8011 ; move to circle
; G1 X91.006 Y167.850 F7472 ; move to circle
; G1 X86.053 Y172.560 F7525 ; move to circle
; G1 X84.496 Y167.343 F6050 ; move to circle
; G1 X88.154 Y171.659 F6229 ; move to circle
; G1 X83.277 Y173.273 F5656 ; move to circle
; G1 X87.798 Y169.726 F6385 ; move to circle
; G1 X83.239 Y168.375 F5235 ; move to circle
; G1 X90.011 Y170.871 F7946 ; move to circle
; G1 X83.990 Y171.960 F6799 ; move to circle
; G1 X89.918 Y173.442 F6727 ; move to circle
; G1 X88.042 Y167.212 F7164 ; move to circle
; G1 X83.427 Y170.552 F6272 ; move to circle

; ------------------- FOOTER BEGIN -------------------

;TYPE:Custom
; Filament-specific end gcode
G4 ; wait

G28 W ; home all without mesh bed level
M84 ; disable motors
M73 P100 R0
M73 Q100 S0