; generated by PrusaSlicer 2.3.1+win64 on 2021-06-03 at 01:08:08 UTC

; 

; external perimeters extrusion width = 0.45mm
; perimeters extrusion width = 0.45mm
; infill extrusion width = 0.45mm
; solid infill extrusion width = 0.45mm
; top infill extrusion width = 0.40mm
; first layer extrusion width = 0.42mm

M73 P0 R0 ; set progress
M73 Q0 S0 ; set progress
M201 X2000 Y2000 Z200 E5000 ; sets maximum accelerations, mm/sec^2
M203 X200 Y200 Z12 E120 ; sets maximum feedrates, mm/sec
M204 P1250 R1250 T1250 ; sets acceleration (P, T) and retract acceleration (R), mm/sec^2
M205 X8.00 Y8.00 Z0.40 E4.50 ; sets the jerk limits, mm/sec
M205 S0 T0 ; sets the minimum extruding and travel feed rate, mm/sec
M107 ; fan off
;TYPE:Custom
M862.3 P "MK3S" ; printer model check
M862.1 P0.4 ; nozzle diameter check
M115 U3.9.2 ; tell printer latest fw version
G90 ; use absolute coordinates
M83 ; extruder relative mode
G28 W ; home all without mesh bed level
G1 X0 Y0 F1000.0 ; go outside print area

; Don't change E values below. Excessive value can damage the printer.

M907 E538 ; set extruder motor current
G21 ; set units to millimeters
G90 ; use absolute coordinates
M83 ; use relative distances for extrusion
;LAYER_CHANGE
;Z:0.2
;HEIGHT:0.2
;BEFORE_LAYER_CHANGE
;0.2

; --------------------- HEADER END ---------------------

G1 Z20 ; raise nozzle before travelling to tablet
G1 X88.000 Y172.637 F12000 ; move nozzle on top of start song button
G1 Z14.5 ; lower nozzle to tablet
G1 Z14.00 F9000 ; tap press
G1 Z14.50 F9000 ; tap release
G4 P500 ; wait
G1 X87.600 Y170.511 F2000 ; move nozzle to skip button 
G1 Z14.00 F9000 ; tap press
G1 Z14.50 F9000 ; tap release
G4 P500 ; wait
G1 X85.306 Y172.803 F2000 ; move to first hit object in the map
G4 P1800.0 ; LOCK wait until first object
; START MAP


G1 X85.822 Y172.901 F12000
G4 P257.0 ; (1) distance: 0.53mm, speed: 193.3mm/min
G1 X85.343 Y172.763 F12000
G4 P257.0 ; (2) distance: 0.50mm, speed: 183.3mm/min
G1 X83.130 Y173.532 F12000
G4 P168.0 ; LOCK (3) distance: 2.34mm, speed: 1295.8mm/min
G1 X84.349 Y172.084 F12000
G4 P149.0 ; (4) distance: 1.89mm, speed: 1042.2mm/min
G1 X85.118 Y171.118 F12000
G4 P40.0 ; (5) distance: 1.23mm, speed: 1359.1mm/min
G1 X83.936 Y170.881 F12000
G4 P39.0 ; (6) distance: 1.21mm, speed: 1339.2mm/min
G1 X83.871 Y171.423 F12000
G4 P257.0 ; (7) distance: 0.55mm, speed: 200.9mm/min

G1 X84.396 Y171.995 F12000
G4 P65.0 ; (1) distance: 0.78mm, speed: 695.1mm/min
G1 X84.349 Y173.690 F12000
G4 P257.0 ; (2) distance: 1.70mm, speed: 624.1mm/min
G1 X84.584 Y172.192 F12000
G4 P39.0 ; (3) distance: 1.52mm, speed: 1684.3mm/min
G1 X85.897 Y172.261 F12000
G4 P149.0 ; (4) distance: 1.31mm, speed: 723.8mm/min
G1 X83.561 Y171.423 F12000
G4 P148.0 ; (5) distance: 2.48mm, speed: 1372.1mm/min
G1 X82.117 Y171.345 F12000
G4 P241.0 ; LOCK (6) distance: 1.45mm, speed: 532.5mm/min
G1 X83.646 Y171.256 F12000
G4 P40.0 ; (7) distance: 1.53mm, speed: 1686.0mm/min
G1 X83.618 Y172.576 F12000
G4 P148.0 ; (8) distance: 1.32mm, speed: 730.3mm/min

G1 X82.060 Y173.108 F12000
G4 P149.0 ; (1) distance: 1.65mm, speed: 905.8mm/min
G4 P108.0 ; (2) stationary
G1 X83.299 Y173.404 F12000
G4 P79.0 ; LOCK (3) distance: 1.27mm, speed: 700.7mm/min
G1 X84.987 Y172.241 F12000
G4 P39.0 ; LOCK (4) distance: 2.05mm, speed: 2277.7mm/min
G1 X83.608 Y172.428 F12000
G4 P149.0 ; (5) distance: 1.39mm, speed: 766.0mm/min
G1 X84.068 Y173.837 F12000
G4 P148.0 ; (6) distance: 1.48mm, speed: 819.6mm/min
G1 X82.698 Y172.054 F12000
G4 P149.0 ; (7) distance: 2.25mm, speed: 1237.7mm/min
G1 X84.752 Y170.862 F12000
G4 P148.0 ; (8) distance: 2.38mm, speed: 1313.4mm/min
G1 X84.743 Y172.182 F12000
G4 P138.0 ; LOCK (9) distance: 1.32mm, speed: 730.1mm/min

G1 X82.220 Y171.443 F12000
G4 P149.0 ; (1) distance: 2.63mm, speed: 1447.3mm/min
G1 X83.392 Y171.778 F12000
G4 P108.0 ; LOCK (2) distance: 1.22mm, speed: 674.3mm/min
G1 X81.845 Y172.202 F12000
G4 P40.0 ; (3) distance: 1.60mm, speed: 1766.6mm/min
G1 X81.976 Y170.744 F12000
G4 P138.0 ; LOCK (4) distance: 1.46mm, speed: 809.7mm/min
G1 X82.642 Y172.271 F12000
G4 P40.0 ; (5) distance: 1.67mm, speed: 1834.2mm/min
G1 X82.839 Y172.980 F12000
G4 P30.0 ; LOCK (6) distance: 0.74mm, speed: 810.5mm/min
G1 X84.105 Y174.123 F12000
G4 P39.0 ; (7) distance: 1.71mm, speed: 1895.3mm/min
G1 X82.961 Y173.798 F12000
G4 P149.0 ; (8) distance: 1.19mm, speed: 654.8mm/min
G1 X81.732 Y173.818 F12000
G4 P39.0 ; (9) distance: 1.23mm, speed: 1365.5mm/min
G1 X81.732 Y174.015 F12000
G4 P40.0 ; (10) distance: 0.20mm, speed: 216.9mm/min
G1 X82.070 Y173.384 F12000
G4 P40.0 ; (11) distance: 0.72mm, speed: 787.5mm/min
G1 X82.942 Y172.763 F12000
G4 P40.0 ; (12) distance: 1.07mm, speed: 1178.7mm/min
G1 X82.680 Y172.084 F12000
G4 P29.0 ; LOCK (13) distance: 0.73mm, speed: 809.8mm/min

G1 X83.618 Y170.822 F12000
G4 P40.0 ; (1) distance: 1.57mm, speed: 1730.4mm/min
G1 X83.599 Y172.113 F12000
G4 P148.0 ; (2) distance: 1.29mm, speed: 713.8mm/min
G1 X83.852 Y170.931 F12000
G4 P40.0 ; (3) distance: 1.21mm, speed: 1331.2mm/min
G1 X85.231 Y170.911 F12000
G4 P153.0 ; LOCK (4) distance: 1.38mm, speed: 762.6mm/min
G1 X85.456 Y172.005 F12000
G4 P45.0 ; LOCK (5) distance: 1.12mm, speed: 1229.3mm/min
G1 X84.781 Y171.788 F12000
G4 P45.0 ; LOCK (6) distance: 0.71mm, speed: 780.9mm/min
G1 X86.122 Y171.483 F12000
G4 P44.0 ; LOCK (7) distance: 1.38mm, speed: 1528.5mm/min
G1 X86.019 Y172.931 F12000
G4 P154.0 ; LOCK (8) distance: 1.45mm, speed: 799.3mm/min
G1 X85.128 Y173.591 F12000
G4 P45.0 ; LOCK (9) distance: 1.11mm, speed: 1220.9mm/min
G1 X85.353 Y173.788 F12000
G4 P44.0 ; LOCK (10) distance: 0.30mm, speed: 332.4mm/min
G1 X85.090 Y173.118 F12000
G4 P45.0 ; LOCK (11) distance: 0.72mm, speed: 792.3mm/min
G1 X84.471 Y171.837 F12000
G4 P45.0 ; LOCK (12) distance: 1.42mm, speed: 1566.2mm/min
G1 X84.283 Y172.547 F12000
G4 P44.0 ; LOCK (13) distance: 0.73mm, speed: 815.3mm/min

G1 X84.330 Y173.837 F12000
G4 P40.0 ; (1) distance: 1.29mm, speed: 1421.9mm/min
G1 X83.383 Y173.473 F12000
G4 P257.0 ; (2) distance: 1.02mm, speed: 373.7mm/min
G1 X82.820 Y172.310 F12000
G4 P40.0 ; (3) distance: 1.29mm, speed: 1422.0mm/min
G1 X82.661 Y173.788 F12000
G4 P148.0 ; (4) distance: 1.49mm, speed: 822.0mm/min
G1 X84.321 Y172.212 F12000
G4 P149.0 ; (5) distance: 2.29mm, speed: 1260.3mm/min
G1 X84.443 Y171.335 F12000
G4 P257.0 ; (6) distance: 0.89mm, speed: 325.9mm/min
G1 X84.143 Y172.340 F12000
G4 P39.0 ; (7) distance: 1.05mm, speed: 1165.4mm/min
G1 X85.297 Y172.655 F12000
G4 P149.0 ; (8) distance: 1.20mm, speed: 658.4mm/min

G1 X83.242 Y171.364 F12000
G4 P148.0 ; (1) distance: 2.43mm, speed: 1341.6mm/min
G4 P109.0 ; (2) stationary
G1 X82.060 Y170.832 F12000
G4 P148.0 ; (3) distance: 1.30mm, speed: 716.7mm/min
G1 X81.751 Y171.532 F12000
G4 P40.0 ; (4) distance: 0.76mm, speed: 842.2mm/min
G1 X81.910 Y172.773 F12000
G4 P78.0 ; LOCK (5) distance: 1.25mm, speed: 692.2mm/min
G1 X84.162 Y171.010 F12000
G4 P79.0 ; LOCK (6) distance: 2.86mm, speed: 1574.2mm/min
G1 X82.239 Y172.093 F12000
G4 P148.0 ; (7) distance: 2.21mm, speed: 1220.6mm/min
G1 X85.015 Y173.167 F12000
G4 P149.0 ; (8) distance: 2.98mm, speed: 1638.7mm/min
G1 X84.743 Y171.749 F12000
G4 P148.0 ; (9) distance: 1.44mm, speed: 798.9mm/min

G1 X83.177 Y172.803 F12000
G4 P148.0 ; (1) distance: 1.89mm, speed: 1044.2mm/min
G1 X83.130 Y173.621 F12000
G4 P149.0 ; (2) distance: 0.82mm, speed: 450.9mm/min
G1 X83.880 Y173.611 F12000
G4 P39.0 ; (3) distance: 0.75mm, speed: 833.8mm/min
G1 X83.730 Y174.044 F12000
G4 P149.0 ; (4) distance: 0.46mm, speed: 252.5mm/min
G1 X83.983 Y172.803 F12000
G4 P39.0 ; (5) distance: 1.27mm, speed: 1407.8mm/min
G1 X83.777 Y172.103 F12000
G4 P40.0 ; (6) distance: 0.73mm, speed: 803.0mm/min
G1 X84.696 Y170.950 F12000
G4 P40.0 ; (7) distance: 1.47mm, speed: 1623.2mm/min
G1 X84.640 Y172.221 F12000
G4 P148.0 ; (8) distance: 1.27mm, speed: 703.6mm/min
G1 X83.421 Y171.285 F12000
G4 P40.0 ; (9) distance: 1.54mm, speed: 1692.4mm/min
G1 X83.261 Y171.118 F12000
G4 P40.0 ; (10) distance: 0.23mm, speed: 254.6mm/min
G1 X83.936 Y170.990 F12000
G4 P19.0 ; LOCK (11) distance: 0.69mm, speed: 763.8mm/min
G1 X85.822 Y171.877 F12000
G4 P40.0 ; (12) distance: 2.08mm, speed: 2293.7mm/min
G1 X85.184 Y171.571 F12000
G4 P24.0 ; LOCK (13) distance: 0.71mm, speed: 778.6mm/min

G1 X83.655 Y172.192 F12000
G4 P39.0 ; (1) distance: 1.65mm, speed: 1833.5mm/min
G1 X82.464 Y170.704 F12000
G4 P149.0 ; (2) distance: 1.91mm, speed: 1049.1mm/min
G1 X82.229 Y171.207 F12000
G4 P40.0 ; (3) distance: 0.55mm, speed: 610.5mm/min
G1 X83.092 Y172.941 F12000
G4 P148.0 ; (4) distance: 1.94mm, speed: 1071.1mm/min
G1 X82.914 Y172.625 F12000
G4 P40.0 ; (5) distance: 0.36mm, speed: 398.7mm/min
G1 X82.801 Y172.271 F12000
G4 P39.0 ; (6) distance: 0.37mm, speed: 413.5mm/min
G1 X82.773 Y171.847 F12000
G4 P70.0 ; LOCK (7) distance: 0.42mm, speed: 467.5mm/min
G1 X82.933 Y173.217 F12000
G4 P257.0 ; (8) distance: 1.38mm, speed: 507.5mm/min
G1 X83.843 Y173.098 F12000
G4 P40.0 ; (9) distance: 0.92mm, speed: 1010.1mm/min

; ------------------- FOOTER BEGIN -------------------

;TYPE:Custom
; Filament-specific end gcode
G4 ; wait

G28 W ; home all without mesh bed level
M84 ; disable motors
M73 P100 R0
M73 Q100 S0